%
(Header)
(Generated by gcodetools from Inkscape.)
(Using default header. To add your own header create file "header" in the output dir.)
M3
(Header end.)
G21 (All units in mm)
G90 (Absolute positioning)
G28
(Start cutting path id: 1)
(Change tool to Default tool)
G00 Z32.000000
G00 X60.000000 Y40.868164
G01 Z24.000000 F400.0(Penetrate)
G01 X62.604492 Y40.868164 Z24.000000 F400.000000
G00 Z32.000000
G00 Z32.000000
G00 X60.000000 Y40.000000
G01 Z24.000000 F400.0(Penetrate)
G01 X60.000000 Y41.736328 Z24.000000 F400.000000
G00 Z32.000000
G00 Z32.000000
G00 X60.868164 Y42.852539
G01 Z24.000000 F400.0(Penetrate)
G01 X60.992188 Y42.604492 Z24.000000 F400.000000
G01 X61.240234 Y42.356445 Z24.000000 F400.000000
G01 X61.612305 Y42.232422 Z24.000000 F400.000000
G01 X61.860352 Y42.232422 Z24.000000 F400.000000
G01 X62.232422 Y42.356445 Z24.000000 F400.000000
G01 X62.480469 Y42.604492 Z24.000000 F400.000000
G01 X62.604492 Y42.852539 Z24.000000 F400.000000
G01 X62.604492 Y43.224609 Z24.000000 F400.000000
G01 X62.480469 Y43.472656 Z24.000000 F400.000000
G01 X62.232422 Y43.720703 Z24.000000 F400.000000
G01 X61.860352 Y43.844727 Z24.000000 F400.000000
G01 X61.612305 Y43.844727 Z24.000000 F400.000000
G01 X61.240234 Y43.720703 Z24.000000 F400.000000
G01 X60.992188 Y43.472656 Z24.000000 F400.000000
G01 X60.868164 Y43.224609 Z24.000000 F400.000000
G01 X60.868164 Y42.852539 Z24.000000 F400.000000
G00 Z32.000000
G00 Z32.000000
G00 X60.000000 Y46.077148
G01 Z24.000000 F400.0(Penetrate)
G01 X62.604492 Y46.077148 Z24.000000 F400.000000
G00 Z32.000000
G00 Z32.000000
G00 X61.240234 Y46.077148
G01 Z24.000000 F400.0(Penetrate)
G01 X60.992188 Y45.829102 Z24.000000 F400.000000
G01 X60.868164 Y45.581055 Z24.000000 F400.000000
G01 X60.868164 Y45.208984 Z24.000000 F400.000000
G01 X60.992188 Y44.960938 Z24.000000 F400.000000
G01 X61.240234 Y44.712891 Z24.000000 F400.000000
G01 X61.612305 Y44.588867 Z24.000000 F400.000000
G01 X61.860352 Y44.588867 Z24.000000 F400.000000
G01 X62.232422 Y44.712891 Z24.000000 F400.000000
G01 X62.480469 Y44.960938 Z24.000000 F400.000000
G01 X62.604492 Y45.208984 Z24.000000 F400.000000
G01 X62.604492 Y45.581055 Z24.000000 F400.000000
G01 X62.480469 Y45.829102 Z24.000000 F400.000000
G01 X62.232422 Y46.077148 Z24.000000 F400.000000
G00 Z32.000000
G00 Z32.000000
G00 X60.868164 Y48.433594
G01 Z24.000000 F400.0(Penetrate)
G01 X62.604492 Y48.433594 Z24.000000 F400.000000
G00 Z32.000000
G00 Z32.000000
G00 X61.240234 Y48.433594
G01 Z24.000000 F400.0(Penetrate)
G01 X60.992188 Y48.185547 Z24.000000 F400.000000
G01 X60.868164 Y47.937500 Z24.000000 F400.000000
G01 X60.868164 Y47.565430 Z24.000000 F400.000000
G01 X60.992188 Y47.317383 Z24.000000 F400.000000
G01 X61.240234 Y47.069336 Z24.000000 F400.000000
G01 X61.612305 Y46.945312 Z24.000000 F400.000000
G01 X61.860352 Y46.945312 Z24.000000 F400.000000
G01 X62.232422 Y47.069336 Z24.000000 F400.000000
G01 X62.480469 Y47.317383 Z24.000000 F400.000000
G01 X62.604492 Y47.565430 Z24.000000 F400.000000
G01 X62.604492 Y47.937500 Z24.000000 F400.000000
G01 X62.480469 Y48.185547 Z24.000000 F400.000000
G01 X62.232422 Y48.433594 Z24.000000 F400.000000
G00 Z32.000000
G00 Z32.000000
G00 X60.868164 Y49.177734
G01 Z24.000000 F400.0(Penetrate)
G01 X62.604492 Y49.921875 Z24.000000 F400.000000
G00 Z32.000000
G00 Z32.000000
G00 X60.868164 Y50.666016
G01 Z24.000000 F400.0(Penetrate)
G01 X62.604492 Y49.921875 Z24.000000 F400.000000
G01 X63.100586 Y49.673828 Z24.000000 F400.000000
G01 X63.348633 Y49.425781 Z24.000000 F400.000000
G01 X63.472656 Y49.177734 Z24.000000 F400.000000
G01 X63.472656 Y49.053711 Z24.000000 F400.000000
G00 Z32.000000
G00 Z32.000000
G00 X61.240234 Y52.650391
G01 Z24.000000 F400.0(Penetrate)
G01 X60.992188 Y52.526367 Z24.000000 F400.000000
G01 X60.868164 Y52.154297 Z24.000000 F400.000000
G01 X60.868164 Y51.782227 Z24.000000 F400.000000
G01 X60.992188 Y51.410156 Z24.000000 F400.000000
G01 X61.240234 Y51.286133 Z24.000000 F400.000000
G01 X61.488281 Y51.410156 Z24.000000 F400.000000
G01 X61.612305 Y51.658203 Z24.000000 F400.000000
G01 X61.736328 Y52.278320 Z24.000000 F400.000000
G01 X61.860352 Y52.526367 Z24.000000 F400.000000
G01 X62.108398 Y52.650391 Z24.000000 F400.000000
G01 X62.232422 Y52.650391 Z24.000000 F400.000000
G01 X62.480469 Y52.526367 Z24.000000 F400.000000
G01 X62.604492 Y52.154297 Z24.000000 F400.000000
G01 X62.604492 Y51.782227 Z24.000000 F400.000000
G01 X62.480469 Y51.410156 Z24.000000 F400.000000
G01 X62.232422 Y51.286133 Z24.000000 F400.000000
G00 Z32.000000
G00 Z32.000000
G00 X61.612305 Y55.378906
G01 Z24.000000 F400.0(Penetrate)
G01 X61.612305 Y56.867188 Z24.000000 F400.000000
G01 X61.364258 Y56.867188 Z24.000000 F400.000000
G01 X61.116211 Y56.743164 Z24.000000 F400.000000
G01 X60.992188 Y56.619141 Z24.000000 F400.000000
G01 X60.868164 Y56.371094 Z24.000000 F400.000000
G01 X60.868164 Y55.999023 Z24.000000 F400.000000
G01 X60.992188 Y55.750977 Z24.000000 F400.000000
G01 X61.240234 Y55.502930 Z24.000000 F400.000000
G01 X61.612305 Y55.378906 Z24.000000 F400.000000
G01 X61.860352 Y55.378906 Z24.000000 F400.000000
G01 X62.232422 Y55.502930 Z24.000000 F400.000000
G01 X62.480469 Y55.750977 Z24.000000 F400.000000
G01 X62.604492 Y55.999023 Z24.000000 F400.000000
G01 X62.604492 Y56.371094 Z24.000000 F400.000000
G01 X62.480469 Y56.619141 Z24.000000 F400.000000
G01 X62.232422 Y56.867188 Z24.000000 F400.000000
G00 Z32.000000
G00 Z32.000000
G00 X60.868164 Y57.735352
G01 Z24.000000 F400.0(Penetrate)
G01 X62.604492 Y57.735352 Z24.000000 F400.000000
G00 Z32.000000
G00 Z32.000000
G00 X61.364258 Y57.735352
G01 Z24.000000 F400.0(Penetrate)
G01 X60.992188 Y58.107422 Z24.000000 F400.000000
G01 X60.868164 Y58.355469 Z24.000000 F400.000000
G01 X60.868164 Y58.727539 Z24.000000 F400.000000
G01 X60.992188 Y58.975586 Z24.000000 F400.000000
G01 X61.364258 Y59.099609 Z24.000000 F400.000000
G01 X62.604492 Y59.099609 Z24.000000 F400.000000
G00 Z32.000000
G00 Z32.000000
G00 X60.000000 Y60.215820
G01 Z24.000000 F400.0(Penetrate)
G01 X62.108398 Y60.215820 Z24.000000 F400.000000
G01 X62.480469 Y60.339844 Z24.000000 F400.000000
G01 X62.604492 Y60.587891 Z24.000000 F400.000000
G01 X62.604492 Y60.835938 Z24.000000 F400.000000
G00 Z32.000000
G00 Z32.000000
G00 X60.868164 Y59.843750
G01 Z24.000000 F400.0(Penetrate)
G01 X60.868164 Y60.711914 Z24.000000 F400.000000
G00 Z32.000000
G00 Z32.000000
G00 X60.868164 Y61.580078
G01 Z24.000000 F400.0(Penetrate)
G01 X62.604492 Y61.580078 Z24.000000 F400.000000
G00 Z32.000000
G00 Z32.000000
G00 X61.612305 Y61.580078
G01 Z24.000000 F400.0(Penetrate)
G01 X61.240234 Y61.704102 Z24.000000 F400.000000
G01 X60.992188 Y61.952148 Z24.000000 F400.000000
G01 X60.868164 Y62.200195 Z24.000000 F400.000000
G01 X60.868164 Y62.572266 Z24.000000 F400.000000
G00 Z32.000000
G00 Z32.000000
G00 X60.868164 Y62.944336
G01 Z24.000000 F400.0(Penetrate)
G01 X62.604492 Y63.688477 Z24.000000 F400.000000
G00 Z32.000000
G00 Z32.000000
G00 X60.868164 Y64.432617
G01 Z24.000000 F400.0(Penetrate)
G01 X62.604492 Y63.688477 Z24.000000 F400.000000
G01 X63.100586 Y63.440430 Z24.000000 F400.000000
G01 X63.348633 Y63.192383 Z24.000000 F400.000000
G01 X63.472656 Y62.944336 Z24.000000 F400.000000
G01 X63.472656 Y62.820312 Z24.000000 F400.000000
G00 Z32.000000
G00 Z32.000000
G00 X60.868164 Y67.037109
G01 Z24.000000 F400.0(Penetrate)
G01 X62.604492 Y67.533203 Z24.000000 F400.000000
G00 Z32.000000
G00 Z32.000000
G00 X60.868164 Y68.029297
G01 Z24.000000 F400.0(Penetrate)
G01 X62.604492 Y67.533203 Z24.000000 F400.000000
G00 Z32.000000
G00 Z32.000000
G00 X60.868164 Y68.029297
G01 Z24.000000 F400.0(Penetrate)
G01 X62.604492 Y68.525391 Z24.000000 F400.000000
G00 Z32.000000
G00 Z32.000000
G00 X60.868164 Y69.021484
G01 Z24.000000 F400.0(Penetrate)
G01 X62.604492 Y68.525391 Z24.000000 F400.000000
G00 Z32.000000
G00 Z32.000000
G00 X60.868164 Y71.253906
G01 Z24.000000 F400.0(Penetrate)
G01 X62.604492 Y71.253906 Z24.000000 F400.000000
G00 Z32.000000
G00 Z32.000000
G00 X61.240234 Y71.253906
G01 Z24.000000 F400.0(Penetrate)
G01 X60.992188 Y71.005859 Z24.000000 F400.000000
G01 X60.868164 Y70.757812 Z24.000000 F400.000000
G01 X60.868164 Y70.385742 Z24.000000 F400.000000
G01 X60.992188 Y70.137695 Z24.000000 F400.000000
G01 X61.240234 Y69.889648 Z24.000000 F400.000000
G01 X61.612305 Y69.765625 Z24.000000 F400.000000
G01 X61.860352 Y69.765625 Z24.000000 F400.000000
G01 X62.232422 Y69.889648 Z24.000000 F400.000000
G01 X62.480469 Y70.137695 Z24.000000 F400.000000
G01 X62.604492 Y70.385742 Z24.000000 F400.000000
G01 X62.604492 Y70.757812 Z24.000000 F400.000000
G01 X62.480469 Y71.005859 Z24.000000 F400.000000
G01 X62.232422 Y71.253906 Z24.000000 F400.000000
G00 Z32.000000
G00 Z32.000000
G00 X61.240234 Y73.486328
G01 Z24.000000 F400.0(Penetrate)
G01 X60.992188 Y73.362305 Z24.000000 F400.000000
G01 X60.868164 Y72.990234 Z24.000000 F400.000000
G01 X60.868164 Y72.618164 Z24.000000 F400.000000
G01 X60.992188 Y72.246094 Z24.000000 F400.000000
G01 X61.240234 Y72.122070 Z24.000000 F400.000000
G01 X61.488281 Y72.246094 Z24.000000 F400.000000
G01 X61.612305 Y72.494141 Z24.000000 F400.000000
G01 X61.736328 Y73.114258 Z24.000000 F400.000000
G01 X61.860352 Y73.362305 Z24.000000 F400.000000
G01 X62.108398 Y73.486328 Z24.000000 F400.000000
G01 X62.232422 Y73.486328 Z24.000000 F400.000000
G01 X62.480469 Y73.362305 Z24.000000 F400.000000
G01 X62.604492 Y72.990234 Z24.000000 F400.000000
G01 X62.604492 Y72.618164 Z24.000000 F400.000000
G01 X62.480469 Y72.246094 Z24.000000 F400.000000
G01 X62.232422 Y72.122070 Z24.000000 F400.000000
G00 Z32.000000
G00 Z32.000000
G00 X60.868164 Y76.834961
G01 Z24.000000 F400.0(Penetrate)
G01 X60.992188 Y76.586914 Z24.000000 F400.000000
G01 X61.240234 Y76.338867 Z24.000000 F400.000000
G01 X61.612305 Y76.214844 Z24.000000 F400.000000
G01 X61.860352 Y76.214844 Z24.000000 F400.000000
G01 X62.232422 Y76.338867 Z24.000000 F400.000000
G01 X62.480469 Y76.586914 Z24.000000 F400.000000
G01 X62.604492 Y76.834961 Z24.000000 F400.000000
G01 X62.604492 Y77.207031 Z24.000000 F400.000000
G01 X62.480469 Y77.455078 Z24.000000 F400.000000
G01 X62.232422 Y77.703125 Z24.000000 F400.000000
G01 X61.860352 Y77.827148 Z24.000000 F400.000000
G01 X61.612305 Y77.827148 Z24.000000 F400.000000
G01 X61.240234 Y77.703125 Z24.000000 F400.000000
G01 X60.992188 Y77.455078 Z24.000000 F400.000000
G01 X60.868164 Y77.207031 Z24.000000 F400.000000
G01 X60.868164 Y76.834961 Z24.000000 F400.000000
G00 Z32.000000
G00 Z32.000000
G00 X60.000000 Y78.695312
G01 Z24.000000 F400.0(Penetrate)
G01 X62.604492 Y78.695312 Z24.000000 F400.000000
G00 Z32.000000
G00 Z32.000000
G00 X60.868164 Y79.935547
G01 Z24.000000 F400.0(Penetrate)
G01 X62.108398 Y78.695312 Z24.000000 F400.000000
G00 Z32.000000
G00 Z32.000000
G00 X61.612305 Y79.191406
G01 Z24.000000 F400.0(Penetrate)
G01 X62.604492 Y80.059570 Z24.000000 F400.000000
G00 Z32.000000
G00 Z32.000000
G00 X60.868164 Y82.167969
G01 Z24.000000 F400.0(Penetrate)
G01 X62.604492 Y82.167969 Z24.000000 F400.000000
G00 Z32.000000
G00 Z32.000000
G00 X61.240234 Y82.167969
G01 Z24.000000 F400.0(Penetrate)
G01 X60.992188 Y81.919922 Z24.000000 F400.000000
G01 X60.868164 Y81.671875 Z24.000000 F400.000000
G01 X60.868164 Y81.299805 Z24.000000 F400.000000
G01 X60.992188 Y81.051758 Z24.000000 F400.000000
G01 X61.240234 Y80.803711 Z24.000000 F400.000000
G01 X61.612305 Y80.679688 Z24.000000 F400.000000
G01 X61.860352 Y80.679688 Z24.000000 F400.000000
G01 X62.232422 Y80.803711 Z24.000000 F400.000000
G01 X62.480469 Y81.051758 Z24.000000 F400.000000
G01 X62.604492 Y81.299805 Z24.000000 F400.000000
G01 X62.604492 Y81.671875 Z24.000000 F400.000000
G01 X62.480469 Y81.919922 Z24.000000 F400.000000
G01 X62.232422 Y82.167969 Z24.000000 F400.000000
G00 Z32.000000
G00 Z32.000000
G00 X60.868164 Y82.912109
G01 Z24.000000 F400.0(Penetrate)
G01 X62.604492 Y83.656250 Z24.000000 F400.000000
G00 Z32.000000
G00 Z32.000000
G00 X60.868164 Y84.400391
G01 Z24.000000 F400.0(Penetrate)
G01 X62.604492 Y83.656250 Z24.000000 F400.000000
G01 X63.100586 Y83.408203 Z24.000000 F400.000000
G01 X63.348633 Y83.160156 Z24.000000 F400.000000
G01 X63.472656 Y82.912109 Z24.000000 F400.000000
G01 X63.472656 Y82.788086 Z24.000000 F400.000000
G00 Z32.000000
(End cutting path id: 1)

(Footer)
M5
G00 X0.0000 Y0.0000
M2
(Using default footer. To add your own footer create file "footer" in the output dir.)
(end)
%
