%
(Header)
(Generated by gcodetools from Inkscape.)
(Using default header. To add your own header create file "header" in the output dir.)
M3
(Header end.)
G21 (All units in mm)
G90 (Absolute positioning)
G28
(Start cutting path id: 1)
(Change tool to Default tool)
G00 Z32.000000
G00 X216.124023 Y40.000000
G01 Z24.000000 F400.0(Penetrate)
G01 X218.728516 Y40.620117 Z24.000000 F400.000000
G00 Z32.000000
G00 Z32.000000
G00 X216.124023 Y41.240234
G01 Z24.000000 F400.0(Penetrate)
G01 X218.728516 Y40.620117 Z24.000000 F400.000000
G00 Z32.000000
G00 Z32.000000
G00 X216.124023 Y41.240234
G01 Z24.000000 F400.0(Penetrate)
G01 X218.728516 Y41.860352 Z24.000000 F400.000000
G00 Z32.000000
G00 Z32.000000
G00 X216.124023 Y42.480469
G01 Z24.000000 F400.0(Penetrate)
G01 X218.728516 Y41.860352 Z24.000000 F400.000000
G00 Z32.000000
G00 Z32.000000
G00 X216.992188 Y43.720703
G01 Z24.000000 F400.0(Penetrate)
G01 X217.116211 Y43.472656 Z24.000000 F400.000000
G01 X217.364258 Y43.224609 Z24.000000 F400.000000
G01 X217.736328 Y43.100586 Z24.000000 F400.000000
G01 X217.984375 Y43.100586 Z24.000000 F400.000000
G01 X218.356445 Y43.224609 Z24.000000 F400.000000
G01 X218.604492 Y43.472656 Z24.000000 F400.000000
G01 X218.728516 Y43.720703 Z24.000000 F400.000000
G01 X218.728516 Y44.092773 Z24.000000 F400.000000
G01 X218.604492 Y44.340820 Z24.000000 F400.000000
G01 X218.356445 Y44.588867 Z24.000000 F400.000000
G01 X217.984375 Y44.712891 Z24.000000 F400.000000
G01 X217.736328 Y44.712891 Z24.000000 F400.000000
G01 X217.364258 Y44.588867 Z24.000000 F400.000000
G01 X217.116211 Y44.340820 Z24.000000 F400.000000
G01 X216.992188 Y44.092773 Z24.000000 F400.000000
G01 X216.992188 Y43.720703 Z24.000000 F400.000000
G00 Z32.000000
G00 Z32.000000
G00 X216.992188 Y45.581055
G01 Z24.000000 F400.0(Penetrate)
G01 X218.728516 Y45.581055 Z24.000000 F400.000000
G00 Z32.000000
G00 Z32.000000
G00 X217.736328 Y45.581055
G01 Z24.000000 F400.0(Penetrate)
G01 X217.364258 Y45.705078 Z24.000000 F400.000000
G01 X217.116211 Y45.953125 Z24.000000 F400.000000
G01 X216.992188 Y46.201172 Z24.000000 F400.000000
G01 X216.992188 Y46.573242 Z24.000000 F400.000000
G00 Z32.000000
G00 Z32.000000
G00 X216.124023 Y47.193359
G01 Z24.000000 F400.0(Penetrate)
G01 X218.728516 Y47.193359 Z24.000000 F400.000000
G00 Z32.000000
G00 Z32.000000
G00 X216.124023 Y49.549805
G01 Z24.000000 F400.0(Penetrate)
G01 X218.728516 Y49.549805 Z24.000000 F400.000000
G00 Z32.000000
G00 Z32.000000
G00 X217.364258 Y49.549805
G01 Z24.000000 F400.0(Penetrate)
G01 X217.116211 Y49.301758 Z24.000000 F400.000000
G01 X216.992188 Y49.053711 Z24.000000 F400.000000
G01 X216.992188 Y48.681641 Z24.000000 F400.000000
G01 X217.116211 Y48.433594 Z24.000000 F400.000000
G01 X217.364258 Y48.185547 Z24.000000 F400.000000
G01 X217.736328 Y48.061523 Z24.000000 F400.000000
G01 X217.984375 Y48.061523 Z24.000000 F400.000000
G01 X218.356445 Y48.185547 Z24.000000 F400.000000
G01 X218.604492 Y48.433594 Z24.000000 F400.000000
G01 X218.728516 Y48.681641 Z24.000000 F400.000000
G01 X218.728516 Y49.053711 Z24.000000 F400.000000
G01 X218.604492 Y49.301758 Z24.000000 F400.000000
G01 X218.356445 Y49.549805 Z24.000000 F400.000000
G00 Z32.000000
G00 Z32.000000
G00 X216.124023 Y50.666016
G01 Z24.000000 F400.0(Penetrate)
G01 X217.860352 Y50.666016 Z24.000000 F400.000000
G00 Z32.000000
G00 Z32.000000
G00 X218.480469 Y50.666016
G01 Z24.000000 F400.0(Penetrate)
G01 X218.604492 Y50.541992 Z24.000000 F400.000000
G01 X218.728516 Y50.666016 Z24.000000 F400.000000
G01 X218.604492 Y50.790039 Z24.000000 F400.000000
G01 X218.480469 Y50.666016 Z24.000000 F400.000000
G00 Z32.000000
G00 Z32.000000
G00 X210.124023 Y40.248047
G01 Z24.000000 F400.0(Penetrate)
G01 X212.728516 Y40.248047 Z24.000000 F400.000000
G00 Z32.000000
G00 Z32.000000
G00 X210.992188 Y42.604492
G01 Z24.000000 F400.0(Penetrate)
G01 X212.728516 Y42.604492 Z24.000000 F400.000000
G00 Z32.000000
G00 Z32.000000
G00 X211.364258 Y42.604492
G01 Z24.000000 F400.0(Penetrate)
G01 X211.116211 Y42.356445 Z24.000000 F400.000000
G01 X210.992188 Y42.108398 Z24.000000 F400.000000
G01 X210.992188 Y41.736328 Z24.000000 F400.000000
G01 X211.116211 Y41.488281 Z24.000000 F400.000000
G01 X211.364258 Y41.240234 Z24.000000 F400.000000
G01 X211.736328 Y41.116211 Z24.000000 F400.000000
G01 X211.984375 Y41.116211 Z24.000000 F400.000000
G01 X212.356445 Y41.240234 Z24.000000 F400.000000
G01 X212.604492 Y41.488281 Z24.000000 F400.000000
G01 X212.728516 Y41.736328 Z24.000000 F400.000000
G01 X212.728516 Y42.108398 Z24.000000 F400.000000
G01 X212.604492 Y42.356445 Z24.000000 F400.000000
G01 X212.356445 Y42.604492 Z24.000000 F400.000000
G00 Z32.000000
G00 Z32.000000
G00 X210.124023 Y43.472656
G01 Z24.000000 F400.0(Penetrate)
G01 X210.248047 Y43.596680 Z24.000000 F400.000000
G01 X210.124023 Y43.720703 Z24.000000 F400.000000
G01 X210.000000 Y43.596680 Z24.000000 F400.000000
G01 X210.124023 Y43.472656 Z24.000000 F400.000000
G00 Z32.000000
G00 Z32.000000
G00 X210.992188 Y43.596680
G01 Z24.000000 F400.0(Penetrate)
G01 X212.728516 Y43.596680 Z24.000000 F400.000000
G00 Z32.000000
G00 Z32.000000
G00 X210.124023 Y45.953125
G01 Z24.000000 F400.0(Penetrate)
G01 X212.728516 Y45.953125 Z24.000000 F400.000000
G00 Z32.000000
G00 Z32.000000
G00 X211.364258 Y45.953125
G01 Z24.000000 F400.0(Penetrate)
G01 X211.116211 Y45.705078 Z24.000000 F400.000000
G01 X210.992188 Y45.457031 Z24.000000 F400.000000
G01 X210.992188 Y45.084961 Z24.000000 F400.000000
G01 X211.116211 Y44.836914 Z24.000000 F400.000000
G01 X211.364258 Y44.588867 Z24.000000 F400.000000
G01 X211.736328 Y44.464844 Z24.000000 F400.000000
G01 X211.984375 Y44.464844 Z24.000000 F400.000000
G01 X212.356445 Y44.588867 Z24.000000 F400.000000
G01 X212.604492 Y44.836914 Z24.000000 F400.000000
G01 X212.728516 Y45.084961 Z24.000000 F400.000000
G01 X212.728516 Y45.457031 Z24.000000 F400.000000
G01 X212.604492 Y45.705078 Z24.000000 F400.000000
G01 X212.356445 Y45.953125 Z24.000000 F400.000000
G00 Z32.000000
G00 Z32.000000
G00 X210.992188 Y49.425781
G01 Z24.000000 F400.0(Penetrate)
G01 X211.116211 Y49.177734 Z24.000000 F400.000000
G01 X211.364258 Y48.929688 Z24.000000 F400.000000
G01 X211.736328 Y48.805664 Z24.000000 F400.000000
G01 X211.984375 Y48.805664 Z24.000000 F400.000000
G01 X212.356445 Y48.929688 Z24.000000 F400.000000
G01 X212.604492 Y49.177734 Z24.000000 F400.000000
G01 X212.728516 Y49.425781 Z24.000000 F400.000000
G01 X212.728516 Y49.797852 Z24.000000 F400.000000
G01 X212.604492 Y50.045898 Z24.000000 F400.000000
G01 X212.356445 Y50.293945 Z24.000000 F400.000000
G01 X211.984375 Y50.417969 Z24.000000 F400.000000
G01 X211.736328 Y50.417969 Z24.000000 F400.000000
G01 X211.364258 Y50.293945 Z24.000000 F400.000000
G01 X211.116211 Y50.045898 Z24.000000 F400.000000
G01 X210.992188 Y49.797852 Z24.000000 F400.000000
G01 X210.992188 Y49.425781 Z24.000000 F400.000000
G00 Z32.000000
G00 Z32.000000
G00 X210.992188 Y51.286133
G01 Z24.000000 F400.0(Penetrate)
G01 X212.232422 Y51.286133 Z24.000000 F400.000000
G01 X212.604492 Y51.410156 Z24.000000 F400.000000
G01 X212.728516 Y51.658203 Z24.000000 F400.000000
G01 X212.728516 Y52.030273 Z24.000000 F400.000000
G01 X212.604492 Y52.278320 Z24.000000 F400.000000
G01 X212.232422 Y52.650391 Z24.000000 F400.000000
G00 Z32.000000
G00 Z32.000000
G00 X210.992188 Y52.650391
G01 Z24.000000 F400.0(Penetrate)
G01 X212.728516 Y52.650391 Z24.000000 F400.000000
G00 Z32.000000
G00 Z32.000000
G00 X210.124023 Y53.766602
G01 Z24.000000 F400.0(Penetrate)
G01 X212.232422 Y53.766602 Z24.000000 F400.000000
G01 X212.604492 Y53.890625 Z24.000000 F400.000000
G01 X212.728516 Y54.138672 Z24.000000 F400.000000
G01 X212.728516 Y54.386719 Z24.000000 F400.000000
G00 Z32.000000
G00 Z32.000000
G00 X210.992188 Y53.394531
G01 Z24.000000 F400.0(Penetrate)
G01 X210.992188 Y54.262695 Z24.000000 F400.000000
G00 Z32.000000
G00 Z32.000000
G00 X210.992188 Y57.115234
G01 Z24.000000 F400.0(Penetrate)
G01 X212.232422 Y57.115234 Z24.000000 F400.000000
G01 X212.604492 Y57.239258 Z24.000000 F400.000000
G01 X212.728516 Y57.487305 Z24.000000 F400.000000
G01 X212.728516 Y57.859375 Z24.000000 F400.000000
G01 X212.604492 Y58.107422 Z24.000000 F400.000000
G01 X212.232422 Y58.479492 Z24.000000 F400.000000
G00 Z32.000000
G00 Z32.000000
G00 X210.992188 Y58.479492
G01 Z24.000000 F400.0(Penetrate)
G01 X212.728516 Y58.479492 Z24.000000 F400.000000
G00 Z32.000000
G00 Z32.000000
G00 X211.364258 Y60.711914
G01 Z24.000000 F400.0(Penetrate)
G01 X211.116211 Y60.587891 Z24.000000 F400.000000
G01 X210.992188 Y60.215820 Z24.000000 F400.000000
G01 X210.992188 Y59.843750 Z24.000000 F400.000000
G01 X211.116211 Y59.471680 Z24.000000 F400.000000
G01 X211.364258 Y59.347656 Z24.000000 F400.000000
G01 X211.612305 Y59.471680 Z24.000000 F400.000000
G01 X211.736328 Y59.719727 Z24.000000 F400.000000
G01 X211.860352 Y60.339844 Z24.000000 F400.000000
G01 X211.984375 Y60.587891 Z24.000000 F400.000000
G01 X212.232422 Y60.711914 Z24.000000 F400.000000
G01 X212.356445 Y60.711914 Z24.000000 F400.000000
G01 X212.604492 Y60.587891 Z24.000000 F400.000000
G01 X212.728516 Y60.215820 Z24.000000 F400.000000
G01 X212.728516 Y59.843750 Z24.000000 F400.000000
G01 X212.604492 Y59.471680 Z24.000000 F400.000000
G01 X212.356445 Y59.347656 Z24.000000 F400.000000
G00 Z32.000000
G00 Z32.000000
G00 X210.124023 Y61.456055
G01 Z24.000000 F400.0(Penetrate)
G01 X210.248047 Y61.580078 Z24.000000 F400.000000
G01 X210.124023 Y61.704102 Z24.000000 F400.000000
G01 X210.000000 Y61.580078 Z24.000000 F400.000000
G01 X210.124023 Y61.456055 Z24.000000 F400.000000
G00 Z32.000000
G00 Z32.000000
G00 X210.992188 Y61.580078
G01 Z24.000000 F400.0(Penetrate)
G01 X212.728516 Y61.580078 Z24.000000 F400.000000
G00 Z32.000000
G00 Z32.000000
G00 X210.992188 Y62.572266
G01 Z24.000000 F400.0(Penetrate)
G01 X212.728516 Y62.572266 Z24.000000 F400.000000
G00 Z32.000000
G00 Z32.000000
G00 X211.488281 Y62.572266
G01 Z24.000000 F400.0(Penetrate)
G01 X211.116211 Y62.944336 Z24.000000 F400.000000
G01 X210.992188 Y63.192383 Z24.000000 F400.000000
G01 X210.992188 Y63.564453 Z24.000000 F400.000000
G01 X211.116211 Y63.812500 Z24.000000 F400.000000
G01 X211.488281 Y63.936523 Z24.000000 F400.000000
G01 X212.728516 Y63.936523 Z24.000000 F400.000000
G00 Z32.000000
G00 Z32.000000
G00 X210.992188 Y66.292969
G01 Z24.000000 F400.0(Penetrate)
G01 X212.976562 Y66.292969 Z24.000000 F400.000000
G01 X213.348633 Y66.168945 Z24.000000 F400.000000
G01 X213.472656 Y66.044922 Z24.000000 F400.000000
G01 X213.596680 Y65.796875 Z24.000000 F400.000000
G01 X213.596680 Y65.424805 Z24.000000 F400.000000
G01 X213.472656 Y65.176758 Z24.000000 F400.000000
G00 Z32.000000
G00 Z32.000000
G00 X211.364258 Y66.292969
G01 Z24.000000 F400.0(Penetrate)
G01 X211.116211 Y66.044922 Z24.000000 F400.000000
G01 X210.992188 Y65.796875 Z24.000000 F400.000000
G01 X210.992188 Y65.424805 Z24.000000 F400.000000
G01 X211.116211 Y65.176758 Z24.000000 F400.000000
G01 X211.364258 Y64.928711 Z24.000000 F400.000000
G01 X211.736328 Y64.804688 Z24.000000 F400.000000
G01 X211.984375 Y64.804688 Z24.000000 F400.000000
G01 X212.356445 Y64.928711 Z24.000000 F400.000000
G01 X212.604492 Y65.176758 Z24.000000 F400.000000
G01 X212.728516 Y65.424805 Z24.000000 F400.000000
G01 X212.728516 Y65.796875 Z24.000000 F400.000000
G01 X212.604492 Y66.044922 Z24.000000 F400.000000
G01 X212.356445 Y66.292969 Z24.000000 F400.000000
G00 Z32.000000
G00 Z32.000000
G00 X210.992188 Y69.021484
G01 Z24.000000 F400.0(Penetrate)
G01 X212.728516 Y69.765625 Z24.000000 F400.000000
G00 Z32.000000
G00 Z32.000000
G00 X210.992188 Y70.509766
G01 Z24.000000 F400.0(Penetrate)
G01 X212.728516 Y69.765625 Z24.000000 F400.000000
G00 Z32.000000
G00 Z32.000000
G00 X210.992188 Y71.253906
G01 Z24.000000 F400.0(Penetrate)
G01 X213.596680 Y71.253906 Z24.000000 F400.000000
G00 Z32.000000
G00 Z32.000000
G00 X211.364258 Y71.253906
G01 Z24.000000 F400.0(Penetrate)
G01 X211.116211 Y71.501953 Z24.000000 F400.000000
G01 X210.992188 Y71.750000 Z24.000000 F400.000000
G01 X210.992188 Y72.122070 Z24.000000 F400.000000
G01 X211.116211 Y72.370117 Z24.000000 F400.000000
G01 X211.364258 Y72.618164 Z24.000000 F400.000000
G01 X211.736328 Y72.742188 Z24.000000 F400.000000
G01 X211.984375 Y72.742188 Z24.000000 F400.000000
G01 X212.356445 Y72.618164 Z24.000000 F400.000000
G01 X212.604492 Y72.370117 Z24.000000 F400.000000
G01 X212.728516 Y72.122070 Z24.000000 F400.000000
G01 X212.728516 Y71.750000 Z24.000000 F400.000000
G01 X212.604492 Y71.501953 Z24.000000 F400.000000
G01 X212.356445 Y71.253906 Z24.000000 F400.000000
G00 Z32.000000
G00 Z32.000000
G00 X210.992188 Y73.362305
G01 Z24.000000 F400.0(Penetrate)
G01 X212.728516 Y74.106445 Z24.000000 F400.000000
G00 Z32.000000
G00 Z32.000000
G00 X210.992188 Y74.850586
G01 Z24.000000 F400.0(Penetrate)
G01 X212.728516 Y74.106445 Z24.000000 F400.000000
G01 X213.224609 Y73.858398 Z24.000000 F400.000000
G01 X213.472656 Y73.610352 Z24.000000 F400.000000
G01 X213.596680 Y73.362305 Z24.000000 F400.000000
G01 X213.596680 Y73.238281 Z24.000000 F400.000000
G00 Z32.000000
G00 Z32.000000
G00 X210.992188 Y75.594727
G01 Z24.000000 F400.0(Penetrate)
G01 X213.596680 Y75.594727 Z24.000000 F400.000000
G00 Z32.000000
G00 Z32.000000
G00 X211.364258 Y75.594727
G01 Z24.000000 F400.0(Penetrate)
G01 X211.116211 Y75.842773 Z24.000000 F400.000000
G01 X210.992188 Y76.090820 Z24.000000 F400.000000
G01 X210.992188 Y76.462891 Z24.000000 F400.000000
G01 X211.116211 Y76.710938 Z24.000000 F400.000000
G01 X211.364258 Y76.958984 Z24.000000 F400.000000
G01 X211.736328 Y77.083008 Z24.000000 F400.000000
G01 X211.984375 Y77.083008 Z24.000000 F400.000000
G01 X212.356445 Y76.958984 Z24.000000 F400.000000
G01 X212.604492 Y76.710938 Z24.000000 F400.000000
G01 X212.728516 Y76.462891 Z24.000000 F400.000000
G01 X212.728516 Y76.090820 Z24.000000 F400.000000
G01 X212.604492 Y75.842773 Z24.000000 F400.000000
G01 X212.356445 Y75.594727 Z24.000000 F400.000000
G00 Z32.000000
G00 Z32.000000
G00 X211.736328 Y77.827148
G01 Z24.000000 F400.0(Penetrate)
G01 X211.736328 Y79.315430 Z24.000000 F400.000000
G01 X211.488281 Y79.315430 Z24.000000 F400.000000
G01 X211.240234 Y79.191406 Z24.000000 F400.000000
G01 X211.116211 Y79.067383 Z24.000000 F400.000000
G01 X210.992188 Y78.819336 Z24.000000 F400.000000
G01 X210.992188 Y78.447266 Z24.000000 F400.000000
G01 X211.116211 Y78.199219 Z24.000000 F400.000000
G01 X211.364258 Y77.951172 Z24.000000 F400.000000
G01 X211.736328 Y77.827148 Z24.000000 F400.000000
G01 X211.984375 Y77.827148 Z24.000000 F400.000000
G01 X212.356445 Y77.951172 Z24.000000 F400.000000
G01 X212.604492 Y78.199219 Z24.000000 F400.000000
G01 X212.728516 Y78.447266 Z24.000000 F400.000000
G01 X212.728516 Y78.819336 Z24.000000 F400.000000
G01 X212.604492 Y79.067383 Z24.000000 F400.000000
G01 X212.356445 Y79.315430 Z24.000000 F400.000000
G00 Z32.000000
G00 Z32.000000
G00 X210.124023 Y82.043945
G01 Z24.000000 F400.0(Penetrate)
G01 X210.248047 Y82.167969 Z24.000000 F400.000000
G01 X210.124023 Y82.291992 Z24.000000 F400.000000
G01 X210.000000 Y82.167969 Z24.000000 F400.000000
G01 X210.124023 Y82.043945 Z24.000000 F400.000000
G00 Z32.000000
G00 Z32.000000
G00 X210.992188 Y82.167969
G01 Z24.000000 F400.0(Penetrate)
G01 X212.728516 Y82.167969 Z24.000000 F400.000000
G00 Z32.000000
G00 Z32.000000
G00 X210.992188 Y83.160156
G01 Z24.000000 F400.0(Penetrate)
G01 X212.728516 Y83.160156 Z24.000000 F400.000000
G00 Z32.000000
G00 Z32.000000
G00 X211.488281 Y83.160156
G01 Z24.000000 F400.0(Penetrate)
G01 X211.116211 Y83.532227 Z24.000000 F400.000000
G01 X210.992188 Y83.780273 Z24.000000 F400.000000
G01 X210.992188 Y84.152344 Z24.000000 F400.000000
G01 X211.116211 Y84.400391 Z24.000000 F400.000000
G01 X211.488281 Y84.524414 Z24.000000 F400.000000
G01 X212.728516 Y84.524414 Z24.000000 F400.000000
G00 Z32.000000
G00 Z32.000000
G00 X210.992188 Y87.500977
G01 Z24.000000 F400.0(Penetrate)
G01 X212.728516 Y87.500977 Z24.000000 F400.000000
G00 Z32.000000
G00 Z32.000000
G00 X211.488281 Y87.500977
G01 Z24.000000 F400.0(Penetrate)
G01 X211.116211 Y87.873047 Z24.000000 F400.000000
G01 X210.992188 Y88.121094 Z24.000000 F400.000000
G01 X210.992188 Y88.493164 Z24.000000 F400.000000
G01 X211.116211 Y88.741211 Z24.000000 F400.000000
G01 X211.488281 Y88.865234 Z24.000000 F400.000000
G01 X212.728516 Y88.865234 Z24.000000 F400.000000
G00 Z32.000000
G00 Z32.000000
G00 X211.488281 Y88.865234
G01 Z24.000000 F400.0(Penetrate)
G01 X211.116211 Y89.237305 Z24.000000 F400.000000
G01 X210.992188 Y89.485352 Z24.000000 F400.000000
G01 X210.992188 Y89.857422 Z24.000000 F400.000000
G01 X211.116211 Y90.105469 Z24.000000 F400.000000
G01 X211.488281 Y90.229492 Z24.000000 F400.000000
G01 X212.728516 Y90.229492 Z24.000000 F400.000000
G00 Z32.000000
G00 Z32.000000
G00 X210.992188 Y91.221680
G01 Z24.000000 F400.0(Penetrate)
G01 X212.232422 Y91.221680 Z24.000000 F400.000000
G01 X212.604492 Y91.345703 Z24.000000 F400.000000
G01 X212.728516 Y91.593750 Z24.000000 F400.000000
G01 X212.728516 Y91.965820 Z24.000000 F400.000000
G01 X212.604492 Y92.213867 Z24.000000 F400.000000
G01 X212.232422 Y92.585938 Z24.000000 F400.000000
G00 Z32.000000
G00 Z32.000000
G00 X210.992188 Y92.585938
G01 Z24.000000 F400.0(Penetrate)
G01 X212.728516 Y92.585938 Z24.000000 F400.000000
G00 Z32.000000
G00 Z32.000000
G00 X210.124023 Y93.578125
G01 Z24.000000 F400.0(Penetrate)
G01 X212.728516 Y93.578125 Z24.000000 F400.000000
G00 Z32.000000
G00 Z32.000000
G00 X210.124023 Y94.694336
G01 Z24.000000 F400.0(Penetrate)
G01 X212.232422 Y94.694336 Z24.000000 F400.000000
G01 X212.604492 Y94.818359 Z24.000000 F400.000000
G01 X212.728516 Y95.066406 Z24.000000 F400.000000
G01 X212.728516 Y95.314453 Z24.000000 F400.000000
G00 Z32.000000
G00 Z32.000000
G00 X210.992188 Y94.322266
G01 Z24.000000 F400.0(Penetrate)
G01 X210.992188 Y95.190430 Z24.000000 F400.000000
G00 Z32.000000
G00 Z32.000000
G00 X210.124023 Y95.934570
G01 Z24.000000 F400.0(Penetrate)
G01 X210.248047 Y96.058594 Z24.000000 F400.000000
G01 X210.124023 Y96.182617 Z24.000000 F400.000000
G01 X210.000000 Y96.058594 Z24.000000 F400.000000
G01 X210.124023 Y95.934570 Z24.000000 F400.000000
G00 Z32.000000
G00 Z32.000000
G00 X210.992188 Y96.058594
G01 Z24.000000 F400.0(Penetrate)
G01 X212.728516 Y96.058594 Z24.000000 F400.000000
G00 Z32.000000
G00 Z32.000000
G00 X210.992188 Y97.050781
G01 Z24.000000 F400.0(Penetrate)
G01 X213.596680 Y97.050781 Z24.000000 F400.000000
G00 Z32.000000
G00 Z32.000000
G00 X211.364258 Y97.050781
G01 Z24.000000 F400.0(Penetrate)
G01 X211.116211 Y97.298828 Z24.000000 F400.000000
G01 X210.992188 Y97.546875 Z24.000000 F400.000000
G01 X210.992188 Y97.918945 Z24.000000 F400.000000
G01 X211.116211 Y98.166992 Z24.000000 F400.000000
G01 X211.364258 Y98.415039 Z24.000000 F400.000000
G01 X211.736328 Y98.539063 Z24.000000 F400.000000
G01 X211.984375 Y98.539063 Z24.000000 F400.000000
G01 X212.356445 Y98.415039 Z24.000000 F400.000000
G01 X212.604492 Y98.166992 Z24.000000 F400.000000
G01 X212.728516 Y97.918945 Z24.000000 F400.000000
G01 X212.728516 Y97.546875 Z24.000000 F400.000000
G01 X212.604492 Y97.298828 Z24.000000 F400.000000
G01 X212.356445 Y97.050781 Z24.000000 F400.000000
G00 Z32.000000
G00 Z32.000000
G00 X210.124023 Y99.407227
G01 Z24.000000 F400.0(Penetrate)
G01 X212.728516 Y99.407227 Z24.000000 F400.000000
G00 Z32.000000
G00 Z32.000000
G00 X211.736328 Y100.275391
G01 Z24.000000 F400.0(Penetrate)
G01 X211.736328 Y101.763672 Z24.000000 F400.000000
G01 X211.488281 Y101.763672 Z24.000000 F400.000000
G01 X211.240234 Y101.639648 Z24.000000 F400.000000
G01 X211.116211 Y101.515625 Z24.000000 F400.000000
G01 X210.992188 Y101.267578 Z24.000000 F400.000000
G01 X210.992188 Y100.895508 Z24.000000 F400.000000
G01 X211.116211 Y100.647461 Z24.000000 F400.000000
G01 X211.364258 Y100.399414 Z24.000000 F400.000000
G01 X211.736328 Y100.275391 Z24.000000 F400.000000
G01 X211.984375 Y100.275391 Z24.000000 F400.000000
G01 X212.356445 Y100.399414 Z24.000000 F400.000000
G01 X212.604492 Y100.647461 Z24.000000 F400.000000
G01 X212.728516 Y100.895508 Z24.000000 F400.000000
G01 X212.728516 Y101.267578 Z24.000000 F400.000000
G01 X212.604492 Y101.515625 Z24.000000 F400.000000
G01 X212.356445 Y101.763672 Z24.000000 F400.000000
G00 Z32.000000
G00 Z32.000000
G00 X210.124023 Y104.616211
G01 Z24.000000 F400.0(Penetrate)
G01 X212.728516 Y104.616211 Z24.000000 F400.000000
G00 Z32.000000
G00 Z32.000000
G00 X210.124023 Y105.484375
G01 Z24.000000 F400.0(Penetrate)
G01 X210.248047 Y105.608398 Z24.000000 F400.000000
G01 X210.124023 Y105.732422 Z24.000000 F400.000000
G01 X210.000000 Y105.608398 Z24.000000 F400.000000
G01 X210.124023 Y105.484375 Z24.000000 F400.000000
G00 Z32.000000
G00 Z32.000000
G00 X210.992188 Y105.608398
G01 Z24.000000 F400.0(Penetrate)
G01 X212.728516 Y105.608398 Z24.000000 F400.000000
G00 Z32.000000
G00 Z32.000000
G00 X210.992188 Y106.600586
G01 Z24.000000 F400.0(Penetrate)
G01 X212.728516 Y106.600586 Z24.000000 F400.000000
G00 Z32.000000
G00 Z32.000000
G00 X211.488281 Y106.600586
G01 Z24.000000 F400.0(Penetrate)
G01 X211.116211 Y106.972656 Z24.000000 F400.000000
G01 X210.992188 Y107.220703 Z24.000000 F400.000000
G01 X210.992188 Y107.592773 Z24.000000 F400.000000
G01 X211.116211 Y107.840820 Z24.000000 F400.000000
G01 X211.488281 Y107.964844 Z24.000000 F400.000000
G01 X212.728516 Y107.964844 Z24.000000 F400.000000
G00 Z32.000000
G00 Z32.000000
G00 X211.736328 Y108.833008
G01 Z24.000000 F400.0(Penetrate)
G01 X211.736328 Y110.321289 Z24.000000 F400.000000
G01 X211.488281 Y110.321289 Z24.000000 F400.000000
G01 X211.240234 Y110.197266 Z24.000000 F400.000000
G01 X211.116211 Y110.073242 Z24.000000 F400.000000
G01 X210.992188 Y109.825195 Z24.000000 F400.000000
G01 X210.992188 Y109.453125 Z24.000000 F400.000000
G01 X211.116211 Y109.205078 Z24.000000 F400.000000
G01 X211.364258 Y108.957031 Z24.000000 F400.000000
G01 X211.736328 Y108.833008 Z24.000000 F400.000000
G01 X211.984375 Y108.833008 Z24.000000 F400.000000
G01 X212.356445 Y108.957031 Z24.000000 F400.000000
G01 X212.604492 Y109.205078 Z24.000000 F400.000000
G01 X212.728516 Y109.453125 Z24.000000 F400.000000
G01 X212.728516 Y109.825195 Z24.000000 F400.000000
G01 X212.604492 Y110.073242 Z24.000000 F400.000000
G01 X212.356445 Y110.321289 Z24.000000 F400.000000
G00 Z32.000000
G00 Z32.000000
G00 X211.364258 Y112.429688
G01 Z24.000000 F400.0(Penetrate)
G01 X211.116211 Y112.305664 Z24.000000 F400.000000
G01 X210.992188 Y111.933594 Z24.000000 F400.000000
G01 X210.992188 Y111.561523 Z24.000000 F400.000000
G01 X211.116211 Y111.189453 Z24.000000 F400.000000
G01 X211.364258 Y111.065430 Z24.000000 F400.000000
G01 X211.612305 Y111.189453 Z24.000000 F400.000000
G01 X211.736328 Y111.437500 Z24.000000 F400.000000
G01 X211.860352 Y112.057617 Z24.000000 F400.000000
G01 X211.984375 Y112.305664 Z24.000000 F400.000000
G01 X212.232422 Y112.429688 Z24.000000 F400.000000
G01 X212.356445 Y112.429688 Z24.000000 F400.000000
G01 X212.604492 Y112.305664 Z24.000000 F400.000000
G01 X212.728516 Y111.933594 Z24.000000 F400.000000
G01 X212.728516 Y111.561523 Z24.000000 F400.000000
G01 X212.604492 Y111.189453 Z24.000000 F400.000000
G01 X212.356445 Y111.065430 Z24.000000 F400.000000
G00 Z32.000000
G00 Z32.000000
G00 X212.108398 Y113.297852
G01 Z24.000000 F400.0(Penetrate)
G01 X212.232422 Y113.173828 Z24.000000 F400.000000
G01 X212.356445 Y113.297852 Z24.000000 F400.000000
G01 X212.232422 Y113.421875 Z24.000000 F400.000000
G01 X212.108398 Y113.297852 Z24.000000 F400.000000
G00 Z32.000000
G00 Z32.000000
G00 X210.124023 Y116.274414
G01 Z24.000000 F400.0(Penetrate)
G01 X212.728516 Y116.274414 Z24.000000 F400.000000
G00 Z32.000000
G00 Z32.000000
G00 X210.124023 Y118.010742
G01 Z24.000000 F400.0(Penetrate)
G01 X212.728516 Y118.010742 Z24.000000 F400.000000
G00 Z32.000000
G00 Z32.000000
G00 X211.364258 Y116.274414
G01 Z24.000000 F400.0(Penetrate)
G01 X211.364258 Y118.010742 Z24.000000 F400.000000
G00 Z32.000000
G00 Z32.000000
G00 X211.736328 Y118.878906
G01 Z24.000000 F400.0(Penetrate)
G01 X211.736328 Y120.367188 Z24.000000 F400.000000
G01 X211.488281 Y120.367188 Z24.000000 F400.000000
G01 X211.240234 Y120.243164 Z24.000000 F400.000000
G01 X211.116211 Y120.119141 Z24.000000 F400.000000
G01 X210.992188 Y119.871094 Z24.000000 F400.000000
G01 X210.992188 Y119.499023 Z24.000000 F400.000000
G01 X211.116211 Y119.250977 Z24.000000 F400.000000
G01 X211.364258 Y119.002930 Z24.000000 F400.000000
G01 X211.736328 Y118.878906 Z24.000000 F400.000000
G01 X211.984375 Y118.878906 Z24.000000 F400.000000
G01 X212.356445 Y119.002930 Z24.000000 F400.000000
G01 X212.604492 Y119.250977 Z24.000000 F400.000000
G01 X212.728516 Y119.499023 Z24.000000 F400.000000
G01 X212.728516 Y119.871094 Z24.000000 F400.000000
G01 X212.604492 Y120.119141 Z24.000000 F400.000000
G01 X212.356445 Y120.367188 Z24.000000 F400.000000
G00 Z32.000000
G00 Z32.000000
G00 X210.124023 Y121.235352
G01 Z24.000000 F400.0(Penetrate)
G01 X212.728516 Y121.235352 Z24.000000 F400.000000
G00 Z32.000000
G00 Z32.000000
G00 X210.124023 Y122.227539
G01 Z24.000000 F400.0(Penetrate)
G01 X212.728516 Y122.227539 Z24.000000 F400.000000
G00 Z32.000000
G00 Z32.000000
G00 X210.992188 Y123.715820
G01 Z24.000000 F400.0(Penetrate)
G01 X211.116211 Y123.467773 Z24.000000 F400.000000
G01 X211.364258 Y123.219727 Z24.000000 F400.000000
G01 X211.736328 Y123.095703 Z24.000000 F400.000000
G01 X211.984375 Y123.095703 Z24.000000 F400.000000
G01 X212.356445 Y123.219727 Z24.000000 F400.000000
G01 X212.604492 Y123.467773 Z24.000000 F400.000000
G01 X212.728516 Y123.715820 Z24.000000 F400.000000
G01 X212.728516 Y124.087891 Z24.000000 F400.000000
G01 X212.604492 Y124.335938 Z24.000000 F400.000000
G01 X212.356445 Y124.583984 Z24.000000 F400.000000
G01 X211.984375 Y124.708008 Z24.000000 F400.000000
G01 X211.736328 Y124.708008 Z24.000000 F400.000000
G01 X211.364258 Y124.583984 Z24.000000 F400.000000
G01 X211.116211 Y124.335938 Z24.000000 F400.000000
G01 X210.992188 Y124.087891 Z24.000000 F400.000000
G01 X210.992188 Y123.715820 Z24.000000 F400.000000
G00 Z32.000000
G00 Z32.000000
G00 X212.232422 Y125.700195
G01 Z24.000000 F400.0(Penetrate)
G01 X212.356445 Y125.576172 Z24.000000 F400.000000
G01 X212.232422 Y125.452148 Z24.000000 F400.000000
G01 X212.108398 Y125.576172 Z24.000000 F400.000000
G01 X212.232422 Y125.700195 Z24.000000 F400.000000
G01 X212.480469 Y125.700195 Z24.000000 F400.000000
G01 X212.728516 Y125.452148 Z24.000000 F400.000000
G00 Z32.000000
G00 Z32.000000
G00 X204.124023 Y40.000000
G01 Z24.000000 F400.0(Penetrate)
G01 X206.728516 Y40.620117 Z24.000000 F400.000000
G00 Z32.000000
G00 Z32.000000
G00 X204.124023 Y41.240234
G01 Z24.000000 F400.0(Penetrate)
G01 X206.728516 Y40.620117 Z24.000000 F400.000000
G00 Z32.000000
G00 Z32.000000
G00 X204.124023 Y41.240234
G01 Z24.000000 F400.0(Penetrate)
G01 X206.728516 Y41.860352 Z24.000000 F400.000000
G00 Z32.000000
G00 Z32.000000
G00 X204.124023 Y42.480469
G01 Z24.000000 F400.0(Penetrate)
G01 X206.728516 Y41.860352 Z24.000000 F400.000000
G00 Z32.000000
G00 Z32.000000
G00 X204.992188 Y43.720703
G01 Z24.000000 F400.0(Penetrate)
G01 X205.116211 Y43.472656 Z24.000000 F400.000000
G01 X205.364258 Y43.224609 Z24.000000 F400.000000
G01 X205.736328 Y43.100586 Z24.000000 F400.000000
G01 X205.984375 Y43.100586 Z24.000000 F400.000000
G01 X206.356445 Y43.224609 Z24.000000 F400.000000
G01 X206.604492 Y43.472656 Z24.000000 F400.000000
G01 X206.728516 Y43.720703 Z24.000000 F400.000000
G01 X206.728516 Y44.092773 Z24.000000 F400.000000
G01 X206.604492 Y44.340820 Z24.000000 F400.000000
G01 X206.356445 Y44.588867 Z24.000000 F400.000000
G01 X205.984375 Y44.712891 Z24.000000 F400.000000
G01 X205.736328 Y44.712891 Z24.000000 F400.000000
G01 X205.364258 Y44.588867 Z24.000000 F400.000000
G01 X205.116211 Y44.340820 Z24.000000 F400.000000
G01 X204.992188 Y44.092773 Z24.000000 F400.000000
G01 X204.992188 Y43.720703 Z24.000000 F400.000000
G00 Z32.000000
G00 Z32.000000
G00 X204.992188 Y45.581055
G01 Z24.000000 F400.0(Penetrate)
G01 X206.728516 Y45.581055 Z24.000000 F400.000000
G00 Z32.000000
G00 Z32.000000
G00 X205.736328 Y45.581055
G01 Z24.000000 F400.0(Penetrate)
G01 X205.364258 Y45.705078 Z24.000000 F400.000000
G01 X205.116211 Y45.953125 Z24.000000 F400.000000
G01 X204.992188 Y46.201172 Z24.000000 F400.000000
G01 X204.992188 Y46.573242 Z24.000000 F400.000000
G00 Z32.000000
G00 Z32.000000
G00 X204.124023 Y47.193359
G01 Z24.000000 F400.0(Penetrate)
G01 X206.728516 Y47.193359 Z24.000000 F400.000000
G00 Z32.000000
G00 Z32.000000
G00 X204.124023 Y49.549805
G01 Z24.000000 F400.0(Penetrate)
G01 X206.728516 Y49.549805 Z24.000000 F400.000000
G00 Z32.000000
G00 Z32.000000
G00 X205.364258 Y49.549805
G01 Z24.000000 F400.0(Penetrate)
G01 X205.116211 Y49.301758 Z24.000000 F400.000000
G01 X204.992188 Y49.053711 Z24.000000 F400.000000
G01 X204.992188 Y48.681641 Z24.000000 F400.000000
G01 X205.116211 Y48.433594 Z24.000000 F400.000000
G01 X205.364258 Y48.185547 Z24.000000 F400.000000
G01 X205.736328 Y48.061523 Z24.000000 F400.000000
G01 X205.984375 Y48.061523 Z24.000000 F400.000000
G01 X206.356445 Y48.185547 Z24.000000 F400.000000
G01 X206.604492 Y48.433594 Z24.000000 F400.000000
G01 X206.728516 Y48.681641 Z24.000000 F400.000000
G01 X206.728516 Y49.053711 Z24.000000 F400.000000
G01 X206.604492 Y49.301758 Z24.000000 F400.000000
G01 X206.356445 Y49.549805 Z24.000000 F400.000000
G00 Z32.000000
G00 Z32.000000
G00 X204.124023 Y50.666016
G01 Z24.000000 F400.0(Penetrate)
G01 X205.860352 Y50.666016 Z24.000000 F400.000000
G00 Z32.000000
G00 Z32.000000
G00 X206.480469 Y50.666016
G01 Z24.000000 F400.0(Penetrate)
G01 X206.604492 Y50.541992 Z24.000000 F400.000000
G01 X206.728516 Y50.666016 Z24.000000 F400.000000
G01 X206.604492 Y50.790039 Z24.000000 F400.000000
G01 X206.480469 Y50.666016 Z24.000000 F400.000000
G00 Z32.000000
G00 Z32.000000
G00 X204.124023 Y54.262695
G01 Z24.000000 F400.0(Penetrate)
G01 X206.728516 Y54.262695 Z24.000000 F400.000000
G00 Z32.000000
G00 Z32.000000
G00 X204.124023 Y53.394531
G01 Z24.000000 F400.0(Penetrate)
G01 X204.124023 Y55.130859 Z24.000000 F400.000000
G00 Z32.000000
G00 Z32.000000
G00 X204.124023 Y55.750977
G01 Z24.000000 F400.0(Penetrate)
G01 X206.728516 Y55.750977 Z24.000000 F400.000000
G00 Z32.000000
G00 Z32.000000
G00 X205.488281 Y55.750977
G01 Z24.000000 F400.0(Penetrate)
G01 X205.116211 Y56.123047 Z24.000000 F400.000000
G01 X204.992188 Y56.371094 Z24.000000 F400.000000
G01 X204.992188 Y56.743164 Z24.000000 F400.000000
G01 X205.116211 Y56.991211 Z24.000000 F400.000000
G01 X205.488281 Y57.115234 Z24.000000 F400.000000
G01 X206.728516 Y57.115234 Z24.000000 F400.000000
G00 Z32.000000
G00 Z32.000000
G00 X204.124023 Y57.983398
G01 Z24.000000 F400.0(Penetrate)
G01 X204.248047 Y58.107422 Z24.000000 F400.000000
G01 X204.124023 Y58.231445 Z24.000000 F400.000000
G01 X204.000000 Y58.107422 Z24.000000 F400.000000
G01 X204.124023 Y57.983398 Z24.000000 F400.000000
G00 Z32.000000
G00 Z32.000000
G00 X204.992188 Y58.107422
G01 Z24.000000 F400.0(Penetrate)
G01 X206.728516 Y58.107422 Z24.000000 F400.000000
G00 Z32.000000
G00 Z32.000000
G00 X205.364258 Y60.339844
G01 Z24.000000 F400.0(Penetrate)
G01 X205.116211 Y60.215820 Z24.000000 F400.000000
G01 X204.992188 Y59.843750 Z24.000000 F400.000000
G01 X204.992188 Y59.471680 Z24.000000 F400.000000
G01 X205.116211 Y59.099609 Z24.000000 F400.000000
G01 X205.364258 Y58.975586 Z24.000000 F400.000000
G01 X205.612305 Y59.099609 Z24.000000 F400.000000
G01 X205.736328 Y59.347656 Z24.000000 F400.000000
G01 X205.860352 Y59.967773 Z24.000000 F400.000000
G01 X205.984375 Y60.215820 Z24.000000 F400.000000
G01 X206.232422 Y60.339844 Z24.000000 F400.000000
G01 X206.356445 Y60.339844 Z24.000000 F400.000000
G01 X206.604492 Y60.215820 Z24.000000 F400.000000
G01 X206.728516 Y59.843750 Z24.000000 F400.000000
G01 X206.728516 Y59.471680 Z24.000000 F400.000000
G01 X206.604492 Y59.099609 Z24.000000 F400.000000
G01 X206.356445 Y58.975586 Z24.000000 F400.000000
G00 Z32.000000
G00 Z32.000000
G00 X204.124023 Y63.068359
G01 Z24.000000 F400.0(Penetrate)
G01 X204.248047 Y63.192383 Z24.000000 F400.000000
G01 X204.124023 Y63.316406 Z24.000000 F400.000000
G01 X204.000000 Y63.192383 Z24.000000 F400.000000
G01 X204.124023 Y63.068359 Z24.000000 F400.000000
G00 Z32.000000
G00 Z32.000000
G00 X204.992188 Y63.192383
G01 Z24.000000 F400.0(Penetrate)
G01 X206.728516 Y63.192383 Z24.000000 F400.000000
G00 Z32.000000
G00 Z32.000000
G00 X205.364258 Y65.424805
G01 Z24.000000 F400.0(Penetrate)
G01 X205.116211 Y65.300781 Z24.000000 F400.000000
G01 X204.992188 Y64.928711 Z24.000000 F400.000000
G01 X204.992188 Y64.556641 Z24.000000 F400.000000
G01 X205.116211 Y64.184570 Z24.000000 F400.000000
G01 X205.364258 Y64.060547 Z24.000000 F400.000000
G01 X205.612305 Y64.184570 Z24.000000 F400.000000
G01 X205.736328 Y64.432617 Z24.000000 F400.000000
G01 X205.860352 Y65.052734 Z24.000000 F400.000000
G01 X205.984375 Y65.300781 Z24.000000 F400.000000
G01 X206.232422 Y65.424805 Z24.000000 F400.000000
G01 X206.356445 Y65.424805 Z24.000000 F400.000000
G01 X206.604492 Y65.300781 Z24.000000 F400.000000
G01 X206.728516 Y64.928711 Z24.000000 F400.000000
G01 X206.728516 Y64.556641 Z24.000000 F400.000000
G01 X206.604492 Y64.184570 Z24.000000 F400.000000
G01 X206.356445 Y64.060547 Z24.000000 F400.000000
G00 Z32.000000
G00 Z32.000000
G00 X204.992188 Y69.641602
G01 Z24.000000 F400.0(Penetrate)
G01 X206.728516 Y69.641602 Z24.000000 F400.000000
G00 Z32.000000
G00 Z32.000000
G00 X205.364258 Y69.641602
G01 Z24.000000 F400.0(Penetrate)
G01 X205.116211 Y69.393555 Z24.000000 F400.000000
G01 X204.992188 Y69.145508 Z24.000000 F400.000000
G01 X204.992188 Y68.773438 Z24.000000 F400.000000
G01 X205.116211 Y68.525391 Z24.000000 F400.000000
G01 X205.364258 Y68.277344 Z24.000000 F400.000000
G01 X205.736328 Y68.153320 Z24.000000 F400.000000
G01 X205.984375 Y68.153320 Z24.000000 F400.000000
G01 X206.356445 Y68.277344 Z24.000000 F400.000000
G01 X206.604492 Y68.525391 Z24.000000 F400.000000
G01 X206.728516 Y68.773438 Z24.000000 F400.000000
G01 X206.728516 Y69.145508 Z24.000000 F400.000000
G01 X206.604492 Y69.393555 Z24.000000 F400.000000
G01 X206.356445 Y69.641602 Z24.000000 F400.000000
G00 Z32.000000
G00 Z32.000000
G00 X204.124023 Y72.742188
G01 Z24.000000 F400.0(Penetrate)
G01 X206.232422 Y72.742188 Z24.000000 F400.000000
G01 X206.604492 Y72.866211 Z24.000000 F400.000000
G01 X206.728516 Y73.114258 Z24.000000 F400.000000
G01 X206.728516 Y73.362305 Z24.000000 F400.000000
G00 Z32.000000
G00 Z32.000000
G00 X204.992188 Y72.370117
G01 Z24.000000 F400.0(Penetrate)
G01 X204.992188 Y73.238281 Z24.000000 F400.000000
G00 Z32.000000
G00 Z32.000000
G00 X205.736328 Y73.982422
G01 Z24.000000 F400.0(Penetrate)
G01 X205.736328 Y75.470703 Z24.000000 F400.000000
G01 X205.488281 Y75.470703 Z24.000000 F400.000000
G01 X205.240234 Y75.346680 Z24.000000 F400.000000
G01 X205.116211 Y75.222656 Z24.000000 F400.000000
G01 X204.992188 Y74.974609 Z24.000000 F400.000000
G01 X204.992188 Y74.602539 Z24.000000 F400.000000
G01 X205.116211 Y74.354492 Z24.000000 F400.000000
G01 X205.364258 Y74.106445 Z24.000000 F400.000000
G01 X205.736328 Y73.982422 Z24.000000 F400.000000
G01 X205.984375 Y73.982422 Z24.000000 F400.000000
G01 X206.356445 Y74.106445 Z24.000000 F400.000000
G01 X206.604492 Y74.354492 Z24.000000 F400.000000
G01 X206.728516 Y74.602539 Z24.000000 F400.000000
G01 X206.728516 Y74.974609 Z24.000000 F400.000000
G01 X206.604492 Y75.222656 Z24.000000 F400.000000
G01 X206.356445 Y75.470703 Z24.000000 F400.000000
G00 Z32.000000
G00 Z32.000000
G00 X205.364258 Y77.579102
G01 Z24.000000 F400.0(Penetrate)
G01 X205.116211 Y77.455078 Z24.000000 F400.000000
G01 X204.992188 Y77.083008 Z24.000000 F400.000000
G01 X204.992188 Y76.710938 Z24.000000 F400.000000
G01 X205.116211 Y76.338867 Z24.000000 F400.000000
G01 X205.364258 Y76.214844 Z24.000000 F400.000000
G01 X205.612305 Y76.338867 Z24.000000 F400.000000
G01 X205.736328 Y76.586914 Z24.000000 F400.000000
G01 X205.860352 Y77.207031 Z24.000000 F400.000000
G01 X205.984375 Y77.455078 Z24.000000 F400.000000
G01 X206.232422 Y77.579102 Z24.000000 F400.000000
G01 X206.356445 Y77.579102 Z24.000000 F400.000000
G01 X206.604492 Y77.455078 Z24.000000 F400.000000
G01 X206.728516 Y77.083008 Z24.000000 F400.000000
G01 X206.728516 Y76.710938 Z24.000000 F400.000000
G01 X206.604492 Y76.338867 Z24.000000 F400.000000
G01 X206.356445 Y76.214844 Z24.000000 F400.000000
G00 Z32.000000
G00 Z32.000000
G00 X204.124023 Y78.571289
G01 Z24.000000 F400.0(Penetrate)
G01 X206.232422 Y78.571289 Z24.000000 F400.000000
G01 X206.604492 Y78.695313 Z24.000000 F400.000000
G01 X206.728516 Y78.943359 Z24.000000 F400.000000
G01 X206.728516 Y79.191406 Z24.000000 F400.000000
G00 Z32.000000
G00 Z32.000000
G00 X204.992188 Y78.199219
G01 Z24.000000 F400.0(Penetrate)
G01 X204.992188 Y79.067383 Z24.000000 F400.000000
G00 Z32.000000
G00 Z32.000000
G00 X204.992188 Y81.919922
G01 Z24.000000 F400.0(Penetrate)
G01 X207.596680 Y81.919922 Z24.000000 F400.000000
G00 Z32.000000
G00 Z32.000000
G00 X205.364258 Y81.919922
G01 Z24.000000 F400.0(Penetrate)
G01 X205.116211 Y82.167969 Z24.000000 F400.000000
G01 X204.992188 Y82.416016 Z24.000000 F400.000000
G01 X204.992188 Y82.788086 Z24.000000 F400.000000
G01 X205.116211 Y83.036133 Z24.000000 F400.000000
G01 X205.364258 Y83.284180 Z24.000000 F400.000000
G01 X205.736328 Y83.408203 Z24.000000 F400.000000
G01 X205.984375 Y83.408203 Z24.000000 F400.000000
G01 X206.356445 Y83.284180 Z24.000000 F400.000000
G01 X206.604492 Y83.036133 Z24.000000 F400.000000
G01 X206.728516 Y82.788086 Z24.000000 F400.000000
G01 X206.728516 Y82.416016 Z24.000000 F400.000000
G01 X206.604492 Y82.167969 Z24.000000 F400.000000
G01 X206.356445 Y81.919922 Z24.000000 F400.000000
G00 Z32.000000
G00 Z32.000000
G00 X204.992188 Y85.640625
G01 Z24.000000 F400.0(Penetrate)
G01 X206.728516 Y85.640625 Z24.000000 F400.000000
G00 Z32.000000
G00 Z32.000000
G00 X205.364258 Y85.640625
G01 Z24.000000 F400.0(Penetrate)
G01 X205.116211 Y85.392578 Z24.000000 F400.000000
G01 X204.992188 Y85.144531 Z24.000000 F400.000000
G01 X204.992188 Y84.772461 Z24.000000 F400.000000
G01 X205.116211 Y84.524414 Z24.000000 F400.000000
G01 X205.364258 Y84.276367 Z24.000000 F400.000000
G01 X205.736328 Y84.152344 Z24.000000 F400.000000
G01 X205.984375 Y84.152344 Z24.000000 F400.000000
G01 X206.356445 Y84.276367 Z24.000000 F400.000000
G01 X206.604492 Y84.524414 Z24.000000 F400.000000
G01 X206.728516 Y84.772461 Z24.000000 F400.000000
G01 X206.728516 Y85.144531 Z24.000000 F400.000000
G01 X206.604492 Y85.392578 Z24.000000 F400.000000
G01 X206.356445 Y85.640625 Z24.000000 F400.000000
G00 Z32.000000
G00 Z32.000000
G00 X204.992188 Y86.632813
G01 Z24.000000 F400.0(Penetrate)
G01 X206.728516 Y86.632813 Z24.000000 F400.000000
G00 Z32.000000
G00 Z32.000000
G00 X205.736328 Y86.632813
G01 Z24.000000 F400.0(Penetrate)
G01 X205.364258 Y86.756836 Z24.000000 F400.000000
G01 X205.116211 Y87.004883 Z24.000000 F400.000000
G01 X204.992188 Y87.252930 Z24.000000 F400.000000
G01 X204.992188 Y87.625000 Z24.000000 F400.000000
G00 Z32.000000
G00 Z32.000000
G00 X204.992188 Y89.609375
G01 Z24.000000 F400.0(Penetrate)
G01 X206.728516 Y89.609375 Z24.000000 F400.000000
G00 Z32.000000
G00 Z32.000000
G00 X205.364258 Y89.609375
G01 Z24.000000 F400.0(Penetrate)
G01 X205.116211 Y89.361328 Z24.000000 F400.000000
G01 X204.992188 Y89.113281 Z24.000000 F400.000000
G01 X204.992188 Y88.741211 Z24.000000 F400.000000
G01 X205.116211 Y88.493164 Z24.000000 F400.000000
G01 X205.364258 Y88.245117 Z24.000000 F400.000000
G01 X205.736328 Y88.121094 Z24.000000 F400.000000
G01 X205.984375 Y88.121094 Z24.000000 F400.000000
G01 X206.356445 Y88.245117 Z24.000000 F400.000000
G01 X206.604492 Y88.493164 Z24.000000 F400.000000
G01 X206.728516 Y88.741211 Z24.000000 F400.000000
G01 X206.728516 Y89.113281 Z24.000000 F400.000000
G01 X206.604492 Y89.361328 Z24.000000 F400.000000
G01 X206.356445 Y89.609375 Z24.000000 F400.000000
G00 Z32.000000
G00 Z32.000000
G00 X204.992188 Y91.965820
G01 Z24.000000 F400.0(Penetrate)
G01 X206.976563 Y91.965820 Z24.000000 F400.000000
G01 X207.348633 Y91.841797 Z24.000000 F400.000000
G01 X207.472656 Y91.717773 Z24.000000 F400.000000
G01 X207.596680 Y91.469727 Z24.000000 F400.000000
G01 X207.596680 Y91.097656 Z24.000000 F400.000000
G01 X207.472656 Y90.849609 Z24.000000 F400.000000
G00 Z32.000000
G00 Z32.000000
G00 X205.364258 Y91.965820
G01 Z24.000000 F400.0(Penetrate)
G01 X205.116211 Y91.717773 Z24.000000 F400.000000
G01 X204.992188 Y91.469727 Z24.000000 F400.000000
G01 X204.992188 Y91.097656 Z24.000000 F400.000000
G01 X205.116211 Y90.849609 Z24.000000 F400.000000
G01 X205.364258 Y90.601563 Z24.000000 F400.000000
G01 X205.736328 Y90.477539 Z24.000000 F400.000000
G01 X205.984375 Y90.477539 Z24.000000 F400.000000
G01 X206.356445 Y90.601563 Z24.000000 F400.000000
G01 X206.604492 Y90.849609 Z24.000000 F400.000000
G01 X206.728516 Y91.097656 Z24.000000 F400.000000
G01 X206.728516 Y91.469727 Z24.000000 F400.000000
G01 X206.604492 Y91.717773 Z24.000000 F400.000000
G01 X206.356445 Y91.965820 Z24.000000 F400.000000
G00 Z32.000000
G00 Z32.000000
G00 X204.992188 Y92.958008
G01 Z24.000000 F400.0(Penetrate)
G01 X206.728516 Y92.958008 Z24.000000 F400.000000
G00 Z32.000000
G00 Z32.000000
G00 X205.736328 Y92.958008
G01 Z24.000000 F400.0(Penetrate)
G01 X205.364258 Y93.082031 Z24.000000 F400.000000
G01 X205.116211 Y93.330078 Z24.000000 F400.000000
G01 X204.992188 Y93.578125 Z24.000000 F400.000000
G01 X204.992188 Y93.950195 Z24.000000 F400.000000
G00 Z32.000000
G00 Z32.000000
G00 X204.992188 Y95.934570
G01 Z24.000000 F400.0(Penetrate)
G01 X206.728516 Y95.934570 Z24.000000 F400.000000
G00 Z32.000000
G00 Z32.000000
G00 X205.364258 Y95.934570
G01 Z24.000000 F400.0(Penetrate)
G01 X205.116211 Y95.686523 Z24.000000 F400.000000
G01 X204.992188 Y95.438477 Z24.000000 F400.000000
G01 X204.992188 Y95.066406 Z24.000000 F400.000000
G01 X205.116211 Y94.818359 Z24.000000 F400.000000
G01 X205.364258 Y94.570313 Z24.000000 F400.000000
G01 X205.736328 Y94.446289 Z24.000000 F400.000000
G01 X205.984375 Y94.446289 Z24.000000 F400.000000
G01 X206.356445 Y94.570313 Z24.000000 F400.000000
G01 X206.604492 Y94.818359 Z24.000000 F400.000000
G01 X206.728516 Y95.066406 Z24.000000 F400.000000
G01 X206.728516 Y95.438477 Z24.000000 F400.000000
G01 X206.604492 Y95.686523 Z24.000000 F400.000000
G01 X206.356445 Y95.934570 Z24.000000 F400.000000
G00 Z32.000000
G00 Z32.000000
G00 X204.992188 Y96.926758
G01 Z24.000000 F400.0(Penetrate)
G01 X207.596680 Y96.926758 Z24.000000 F400.000000
G00 Z32.000000
G00 Z32.000000
G00 X205.364258 Y96.926758
G01 Z24.000000 F400.0(Penetrate)
G01 X205.116211 Y97.174805 Z24.000000 F400.000000
G01 X204.992188 Y97.422852 Z24.000000 F400.000000
G01 X204.992188 Y97.794922 Z24.000000 F400.000000
G01 X205.116211 Y98.042969 Z24.000000 F400.000000
G01 X205.364258 Y98.291016 Z24.000000 F400.000000
G01 X205.736328 Y98.415039 Z24.000000 F400.000000
G01 X205.984375 Y98.415039 Z24.000000 F400.000000
G01 X206.356445 Y98.291016 Z24.000000 F400.000000
G01 X206.604492 Y98.042969 Z24.000000 F400.000000
G01 X206.728516 Y97.794922 Z24.000000 F400.000000
G01 X206.728516 Y97.422852 Z24.000000 F400.000000
G01 X206.604492 Y97.174805 Z24.000000 F400.000000
G01 X206.356445 Y96.926758 Z24.000000 F400.000000
G00 Z32.000000
G00 Z32.000000
G00 X204.124023 Y99.283203
G01 Z24.000000 F400.0(Penetrate)
G01 X206.728516 Y99.283203 Z24.000000 F400.000000
G00 Z32.000000
G00 Z32.000000
G00 X205.488281 Y99.283203
G01 Z24.000000 F400.0(Penetrate)
G01 X205.116211 Y99.655273 Z24.000000 F400.000000
G01 X204.992188 Y99.903320 Z24.000000 F400.000000
G01 X204.992188 Y100.275391 Z24.000000 F400.000000
G01 X205.116211 Y100.523438 Z24.000000 F400.000000
G01 X205.488281 Y100.647461 Z24.000000 F400.000000
G01 X206.728516 Y100.647461 Z24.000000 F400.000000
G00 Z32.000000
G00 Z32.000000
G00 X204.124023 Y103.748047
G01 Z24.000000 F400.0(Penetrate)
G01 X206.232422 Y103.748047 Z24.000000 F400.000000
G01 X206.604492 Y103.872070 Z24.000000 F400.000000
G01 X206.728516 Y104.120117 Z24.000000 F400.000000
G01 X206.728516 Y104.368164 Z24.000000 F400.000000
G00 Z32.000000
G00 Z32.000000
G00 X204.992188 Y103.375977
G01 Z24.000000 F400.0(Penetrate)
G01 X204.992188 Y104.244141 Z24.000000 F400.000000
G00 Z32.000000
G00 Z32.000000
G00 X204.124023 Y105.112305
G01 Z24.000000 F400.0(Penetrate)
G01 X206.728516 Y105.112305 Z24.000000 F400.000000
G00 Z32.000000
G00 Z32.000000
G00 X205.488281 Y105.112305
G01 Z24.000000 F400.0(Penetrate)
G01 X205.116211 Y105.484375 Z24.000000 F400.000000
G01 X204.992188 Y105.732422 Z24.000000 F400.000000
G01 X204.992188 Y106.104492 Z24.000000 F400.000000
G01 X205.116211 Y106.352539 Z24.000000 F400.000000
G01 X205.488281 Y106.476563 Z24.000000 F400.000000
G01 X206.728516 Y106.476563 Z24.000000 F400.000000
G00 Z32.000000
G00 Z32.000000
G00 X204.992188 Y108.833008
G01 Z24.000000 F400.0(Penetrate)
G01 X206.728516 Y108.833008 Z24.000000 F400.000000
G00 Z32.000000
G00 Z32.000000
G00 X205.364258 Y108.833008
G01 Z24.000000 F400.0(Penetrate)
G01 X205.116211 Y108.584961 Z24.000000 F400.000000
G01 X204.992188 Y108.336914 Z24.000000 F400.000000
G01 X204.992188 Y107.964844 Z24.000000 F400.000000
G01 X205.116211 Y107.716797 Z24.000000 F400.000000
G01 X205.364258 Y107.468750 Z24.000000 F400.000000
G01 X205.736328 Y107.344727 Z24.000000 F400.000000
G01 X205.984375 Y107.344727 Z24.000000 F400.000000
G01 X206.356445 Y107.468750 Z24.000000 F400.000000
G01 X206.604492 Y107.716797 Z24.000000 F400.000000
G01 X206.728516 Y107.964844 Z24.000000 F400.000000
G01 X206.728516 Y108.336914 Z24.000000 F400.000000
G01 X206.604492 Y108.584961 Z24.000000 F400.000000
G01 X206.356445 Y108.833008 Z24.000000 F400.000000
G00 Z32.000000
G00 Z32.000000
G00 X204.124023 Y109.949219
G01 Z24.000000 F400.0(Penetrate)
G01 X206.232422 Y109.949219 Z24.000000 F400.000000
G01 X206.604492 Y110.073242 Z24.000000 F400.000000
G01 X206.728516 Y110.321289 Z24.000000 F400.000000
G01 X206.728516 Y110.569336 Z24.000000 F400.000000
G00 Z32.000000
G00 Z32.000000
G00 X204.992188 Y109.577148
G01 Z24.000000 F400.0(Penetrate)
G01 X204.992188 Y110.445312 Z24.000000 F400.000000
G00 Z32.000000
G00 Z32.000000
G00 X204.992188 Y113.173828
G01 Z24.000000 F400.0(Penetrate)
G01 X206.728516 Y113.669922 Z24.000000 F400.000000
G00 Z32.000000
G00 Z32.000000
G00 X204.992188 Y114.166016
G01 Z24.000000 F400.0(Penetrate)
G01 X206.728516 Y113.669922 Z24.000000 F400.000000
G00 Z32.000000
G00 Z32.000000
G00 X204.992188 Y114.166016
G01 Z24.000000 F400.0(Penetrate)
G01 X206.728516 Y114.662109 Z24.000000 F400.000000
G00 Z32.000000
G00 Z32.000000
G00 X204.992188 Y115.158203
G01 Z24.000000 F400.0(Penetrate)
G01 X206.728516 Y114.662109 Z24.000000 F400.000000
G00 Z32.000000
G00 Z32.000000
G00 X204.124023 Y115.902344
G01 Z24.000000 F400.0(Penetrate)
G01 X204.248047 Y116.026367 Z24.000000 F400.000000
G01 X204.124023 Y116.150391 Z24.000000 F400.000000
G01 X204.000000 Y116.026367 Z24.000000 F400.000000
G01 X204.124023 Y115.902344 Z24.000000 F400.000000
G00 Z32.000000
G00 Z32.000000
G00 X204.992188 Y116.026367
G01 Z24.000000 F400.0(Penetrate)
G01 X206.728516 Y116.026367 Z24.000000 F400.000000
G00 Z32.000000
G00 Z32.000000
G00 X204.124023 Y117.018555
G01 Z24.000000 F400.0(Penetrate)
G01 X206.728516 Y117.018555 Z24.000000 F400.000000
G00 Z32.000000
G00 Z32.000000
G00 X204.124023 Y118.010742
G01 Z24.000000 F400.0(Penetrate)
G01 X206.728516 Y118.010742 Z24.000000 F400.000000
G00 Z32.000000
G00 Z32.000000
G00 X204.124023 Y120.987305
G01 Z24.000000 F400.0(Penetrate)
G01 X206.728516 Y120.987305 Z24.000000 F400.000000
G00 Z32.000000
G00 Z32.000000
G00 X205.364258 Y120.987305
G01 Z24.000000 F400.0(Penetrate)
G01 X205.116211 Y121.235352 Z24.000000 F400.000000
G01 X204.992188 Y121.483398 Z24.000000 F400.000000
G01 X204.992188 Y121.855469 Z24.000000 F400.000000
G01 X205.116211 Y122.103516 Z24.000000 F400.000000
G01 X205.364258 Y122.351562 Z24.000000 F400.000000
G01 X205.736328 Y122.475586 Z24.000000 F400.000000
G01 X205.984375 Y122.475586 Z24.000000 F400.000000
G01 X206.356445 Y122.351562 Z24.000000 F400.000000
G01 X206.604492 Y122.103516 Z24.000000 F400.000000
G01 X206.728516 Y121.855469 Z24.000000 F400.000000
G01 X206.728516 Y121.483398 Z24.000000 F400.000000
G01 X206.604492 Y121.235352 Z24.000000 F400.000000
G01 X206.356445 Y120.987305 Z24.000000 F400.000000
G00 Z32.000000
G00 Z32.000000
G00 X205.736328 Y123.219727
G01 Z24.000000 F400.0(Penetrate)
G01 X205.736328 Y124.708008 Z24.000000 F400.000000
G01 X205.488281 Y124.708008 Z24.000000 F400.000000
G01 X205.240234 Y124.583984 Z24.000000 F400.000000
G01 X205.116211 Y124.459961 Z24.000000 F400.000000
G01 X204.992188 Y124.211914 Z24.000000 F400.000000
G01 X204.992188 Y123.839844 Z24.000000 F400.000000
G01 X205.116211 Y123.591797 Z24.000000 F400.000000
G01 X205.364258 Y123.343750 Z24.000000 F400.000000
G01 X205.736328 Y123.219727 Z24.000000 F400.000000
G01 X205.984375 Y123.219727 Z24.000000 F400.000000
G01 X206.356445 Y123.343750 Z24.000000 F400.000000
G01 X206.604492 Y123.591797 Z24.000000 F400.000000
G01 X206.728516 Y123.839844 Z24.000000 F400.000000
G01 X206.728516 Y124.211914 Z24.000000 F400.000000
G01 X206.604492 Y124.459961 Z24.000000 F400.000000
G01 X206.356445 Y124.708008 Z24.000000 F400.000000
G00 Z32.000000
G00 Z32.000000
G00 X198.124023 Y40.248047
G01 Z24.000000 F400.0(Penetrate)
G01 X200.728516 Y40.248047 Z24.000000 F400.000000
G00 Z32.000000
G00 Z32.000000
G00 X198.992188 Y42.604492
G01 Z24.000000 F400.0(Penetrate)
G01 X200.728516 Y42.604492 Z24.000000 F400.000000
G00 Z32.000000
G00 Z32.000000
G00 X199.364258 Y42.604492
G01 Z24.000000 F400.0(Penetrate)
G01 X199.116211 Y42.356445 Z24.000000 F400.000000
G01 X198.992188 Y42.108398 Z24.000000 F400.000000
G01 X198.992188 Y41.736328 Z24.000000 F400.000000
G01 X199.116211 Y41.488281 Z24.000000 F400.000000
G01 X199.364258 Y41.240234 Z24.000000 F400.000000
G01 X199.736328 Y41.116211 Z24.000000 F400.000000
G01 X199.984375 Y41.116211 Z24.000000 F400.000000
G01 X200.356445 Y41.240234 Z24.000000 F400.000000
G01 X200.604492 Y41.488281 Z24.000000 F400.000000
G01 X200.728516 Y41.736328 Z24.000000 F400.000000
G01 X200.728516 Y42.108398 Z24.000000 F400.000000
G01 X200.604492 Y42.356445 Z24.000000 F400.000000
G01 X200.356445 Y42.604492 Z24.000000 F400.000000
G00 Z32.000000
G00 Z32.000000
G00 X198.124023 Y43.472656
G01 Z24.000000 F400.0(Penetrate)
G01 X198.248047 Y43.596680 Z24.000000 F400.000000
G01 X198.124023 Y43.720703 Z24.000000 F400.000000
G01 X198.000000 Y43.596680 Z24.000000 F400.000000
G01 X198.124023 Y43.472656 Z24.000000 F400.000000
G00 Z32.000000
G00 Z32.000000
G00 X198.992188 Y43.596680
G01 Z24.000000 F400.0(Penetrate)
G01 X200.728516 Y43.596680 Z24.000000 F400.000000
G00 Z32.000000
G00 Z32.000000
G00 X198.124023 Y45.953125
G01 Z24.000000 F400.0(Penetrate)
G01 X200.728516 Y45.953125 Z24.000000 F400.000000
G00 Z32.000000
G00 Z32.000000
G00 X199.364258 Y45.953125
G01 Z24.000000 F400.0(Penetrate)
G01 X199.116211 Y45.705078 Z24.000000 F400.000000
G01 X198.992188 Y45.457031 Z24.000000 F400.000000
G01 X198.992188 Y45.084961 Z24.000000 F400.000000
G01 X199.116211 Y44.836914 Z24.000000 F400.000000
G01 X199.364258 Y44.588867 Z24.000000 F400.000000
G01 X199.736328 Y44.464844 Z24.000000 F400.000000
G01 X199.984375 Y44.464844 Z24.000000 F400.000000
G01 X200.356445 Y44.588867 Z24.000000 F400.000000
G01 X200.604492 Y44.836914 Z24.000000 F400.000000
G01 X200.728516 Y45.084961 Z24.000000 F400.000000
G01 X200.728516 Y45.457031 Z24.000000 F400.000000
G01 X200.604492 Y45.705078 Z24.000000 F400.000000
G01 X200.356445 Y45.953125 Z24.000000 F400.000000
G00 Z32.000000
G00 Z32.000000
G00 X198.992188 Y49.425781
G01 Z24.000000 F400.0(Penetrate)
G01 X199.116211 Y49.177734 Z24.000000 F400.000000
G01 X199.364258 Y48.929688 Z24.000000 F400.000000
G01 X199.736328 Y48.805664 Z24.000000 F400.000000
G01 X199.984375 Y48.805664 Z24.000000 F400.000000
G01 X200.356445 Y48.929688 Z24.000000 F400.000000
G01 X200.604492 Y49.177734 Z24.000000 F400.000000
G01 X200.728516 Y49.425781 Z24.000000 F400.000000
G01 X200.728516 Y49.797852 Z24.000000 F400.000000
G01 X200.604492 Y50.045898 Z24.000000 F400.000000
G01 X200.356445 Y50.293945 Z24.000000 F400.000000
G01 X199.984375 Y50.417969 Z24.000000 F400.000000
G01 X199.736328 Y50.417969 Z24.000000 F400.000000
G01 X199.364258 Y50.293945 Z24.000000 F400.000000
G01 X199.116211 Y50.045898 Z24.000000 F400.000000
G01 X198.992188 Y49.797852 Z24.000000 F400.000000
G01 X198.992188 Y49.425781 Z24.000000 F400.000000
G00 Z32.000000
G00 Z32.000000
G00 X198.992188 Y51.286133
G01 Z24.000000 F400.0(Penetrate)
G01 X200.232422 Y51.286133 Z24.000000 F400.000000
G01 X200.604492 Y51.410156 Z24.000000 F400.000000
G01 X200.728516 Y51.658203 Z24.000000 F400.000000
G01 X200.728516 Y52.030273 Z24.000000 F400.000000
G01 X200.604492 Y52.278320 Z24.000000 F400.000000
G01 X200.232422 Y52.650391 Z24.000000 F400.000000
G00 Z32.000000
G00 Z32.000000
G00 X198.992188 Y52.650391
G01 Z24.000000 F400.0(Penetrate)
G01 X200.728516 Y52.650391 Z24.000000 F400.000000
G00 Z32.000000
G00 Z32.000000
G00 X198.124023 Y53.766602
G01 Z24.000000 F400.0(Penetrate)
G01 X200.232422 Y53.766602 Z24.000000 F400.000000
G01 X200.604492 Y53.890625 Z24.000000 F400.000000
G01 X200.728516 Y54.138672 Z24.000000 F400.000000
G01 X200.728516 Y54.386719 Z24.000000 F400.000000
G00 Z32.000000
G00 Z32.000000
G00 X198.992188 Y53.394531
G01 Z24.000000 F400.0(Penetrate)
G01 X198.992188 Y54.262695 Z24.000000 F400.000000
G00 Z32.000000
G00 Z32.000000
G00 X198.992188 Y57.115234
G01 Z24.000000 F400.0(Penetrate)
G01 X200.232422 Y57.115234 Z24.000000 F400.000000
G01 X200.604492 Y57.239258 Z24.000000 F400.000000
G01 X200.728516 Y57.487305 Z24.000000 F400.000000
G01 X200.728516 Y57.859375 Z24.000000 F400.000000
G01 X200.604492 Y58.107422 Z24.000000 F400.000000
G01 X200.232422 Y58.479492 Z24.000000 F400.000000
G00 Z32.000000
G00 Z32.000000
G00 X198.992188 Y58.479492
G01 Z24.000000 F400.0(Penetrate)
G01 X200.728516 Y58.479492 Z24.000000 F400.000000
G00 Z32.000000
G00 Z32.000000
G00 X199.364258 Y60.711914
G01 Z24.000000 F400.0(Penetrate)
G01 X199.116211 Y60.587891 Z24.000000 F400.000000
G01 X198.992188 Y60.215820 Z24.000000 F400.000000
G01 X198.992188 Y59.843750 Z24.000000 F400.000000
G01 X199.116211 Y59.471680 Z24.000000 F400.000000
G01 X199.364258 Y59.347656 Z24.000000 F400.000000
G01 X199.612305 Y59.471680 Z24.000000 F400.000000
G01 X199.736328 Y59.719727 Z24.000000 F400.000000
G01 X199.860352 Y60.339844 Z24.000000 F400.000000
G01 X199.984375 Y60.587891 Z24.000000 F400.000000
G01 X200.232422 Y60.711914 Z24.000000 F400.000000
G01 X200.356445 Y60.711914 Z24.000000 F400.000000
G01 X200.604492 Y60.587891 Z24.000000 F400.000000
G01 X200.728516 Y60.215820 Z24.000000 F400.000000
G01 X200.728516 Y59.843750 Z24.000000 F400.000000
G01 X200.604492 Y59.471680 Z24.000000 F400.000000
G01 X200.356445 Y59.347656 Z24.000000 F400.000000
G00 Z32.000000
G00 Z32.000000
G00 X198.124023 Y61.456055
G01 Z24.000000 F400.0(Penetrate)
G01 X198.248047 Y61.580078 Z24.000000 F400.000000
G01 X198.124023 Y61.704102 Z24.000000 F400.000000
G01 X198.000000 Y61.580078 Z24.000000 F400.000000
G01 X198.124023 Y61.456055 Z24.000000 F400.000000
G00 Z32.000000
G00 Z32.000000
G00 X198.992188 Y61.580078
G01 Z24.000000 F400.0(Penetrate)
G01 X200.728516 Y61.580078 Z24.000000 F400.000000
G00 Z32.000000
G00 Z32.000000
G00 X198.992188 Y62.572266
G01 Z24.000000 F400.0(Penetrate)
G01 X200.728516 Y62.572266 Z24.000000 F400.000000
G00 Z32.000000
G00 Z32.000000
G00 X199.488281 Y62.572266
G01 Z24.000000 F400.0(Penetrate)
G01 X199.116211 Y62.944336 Z24.000000 F400.000000
G01 X198.992188 Y63.192383 Z24.000000 F400.000000
G01 X198.992188 Y63.564453 Z24.000000 F400.000000
G01 X199.116211 Y63.812500 Z24.000000 F400.000000
G01 X199.488281 Y63.936523 Z24.000000 F400.000000
G01 X200.728516 Y63.936523 Z24.000000 F400.000000
G00 Z32.000000
G00 Z32.000000
G00 X198.992188 Y66.292969
G01 Z24.000000 F400.0(Penetrate)
G01 X200.976563 Y66.292969 Z24.000000 F400.000000
G01 X201.348633 Y66.168945 Z24.000000 F400.000000
G01 X201.472656 Y66.044922 Z24.000000 F400.000000
G01 X201.596680 Y65.796875 Z24.000000 F400.000000
G01 X201.596680 Y65.424805 Z24.000000 F400.000000
G01 X201.472656 Y65.176758 Z24.000000 F400.000000
G00 Z32.000000
G00 Z32.000000
G00 X199.364258 Y66.292969
G01 Z24.000000 F400.0(Penetrate)
G01 X199.116211 Y66.044922 Z24.000000 F400.000000
G01 X198.992188 Y65.796875 Z24.000000 F400.000000
G01 X198.992188 Y65.424805 Z24.000000 F400.000000
G01 X199.116211 Y65.176758 Z24.000000 F400.000000
G01 X199.364258 Y64.928711 Z24.000000 F400.000000
G01 X199.736328 Y64.804688 Z24.000000 F400.000000
G01 X199.984375 Y64.804688 Z24.000000 F400.000000
G01 X200.356445 Y64.928711 Z24.000000 F400.000000
G01 X200.604492 Y65.176758 Z24.000000 F400.000000
G01 X200.728516 Y65.424805 Z24.000000 F400.000000
G01 X200.728516 Y65.796875 Z24.000000 F400.000000
G01 X200.604492 Y66.044922 Z24.000000 F400.000000
G01 X200.356445 Y66.292969 Z24.000000 F400.000000
G00 Z32.000000
G00 Z32.000000
G00 X198.992188 Y69.021484
G01 Z24.000000 F400.0(Penetrate)
G01 X200.728516 Y69.765625 Z24.000000 F400.000000
G00 Z32.000000
G00 Z32.000000
G00 X198.992188 Y70.509766
G01 Z24.000000 F400.0(Penetrate)
G01 X200.728516 Y69.765625 Z24.000000 F400.000000
G00 Z32.000000
G00 Z32.000000
G00 X198.992188 Y71.253906
G01 Z24.000000 F400.0(Penetrate)
G01 X201.596680 Y71.253906 Z24.000000 F400.000000
G00 Z32.000000
G00 Z32.000000
G00 X199.364258 Y71.253906
G01 Z24.000000 F400.0(Penetrate)
G01 X199.116211 Y71.501953 Z24.000000 F400.000000
G01 X198.992188 Y71.750000 Z24.000000 F400.000000
G01 X198.992188 Y72.122070 Z24.000000 F400.000000
G01 X199.116211 Y72.370117 Z24.000000 F400.000000
G01 X199.364258 Y72.618164 Z24.000000 F400.000000
G01 X199.736328 Y72.742188 Z24.000000 F400.000000
G01 X199.984375 Y72.742188 Z24.000000 F400.000000
G01 X200.356445 Y72.618164 Z24.000000 F400.000000
G01 X200.604492 Y72.370117 Z24.000000 F400.000000
G01 X200.728516 Y72.122070 Z24.000000 F400.000000
G01 X200.728516 Y71.750000 Z24.000000 F400.000000
G01 X200.604492 Y71.501953 Z24.000000 F400.000000
G01 X200.356445 Y71.253906 Z24.000000 F400.000000
G00 Z32.000000
G00 Z32.000000
G00 X198.992188 Y73.362305
G01 Z24.000000 F400.0(Penetrate)
G01 X200.728516 Y74.106445 Z24.000000 F400.000000
G00 Z32.000000
G00 Z32.000000
G00 X198.992188 Y74.850586
G01 Z24.000000 F400.0(Penetrate)
G01 X200.728516 Y74.106445 Z24.000000 F400.000000
G01 X201.224609 Y73.858398 Z24.000000 F400.000000
G01 X201.472656 Y73.610352 Z24.000000 F400.000000
G01 X201.596680 Y73.362305 Z24.000000 F400.000000
G01 X201.596680 Y73.238281 Z24.000000 F400.000000
G00 Z32.000000
G00 Z32.000000
G00 X198.992188 Y75.594727
G01 Z24.000000 F400.0(Penetrate)
G01 X201.596680 Y75.594727 Z24.000000 F400.000000
G00 Z32.000000
G00 Z32.000000
G00 X199.364258 Y75.594727
G01 Z24.000000 F400.0(Penetrate)
G01 X199.116211 Y75.842773 Z24.000000 F400.000000
G01 X198.992188 Y76.090820 Z24.000000 F400.000000
G01 X198.992188 Y76.462891 Z24.000000 F400.000000
G01 X199.116211 Y76.710938 Z24.000000 F400.000000
G01 X199.364258 Y76.958984 Z24.000000 F400.000000
G01 X199.736328 Y77.083008 Z24.000000 F400.000000
G01 X199.984375 Y77.083008 Z24.000000 F400.000000
G01 X200.356445 Y76.958984 Z24.000000 F400.000000
G01 X200.604492 Y76.710938 Z24.000000 F400.000000
G01 X200.728516 Y76.462891 Z24.000000 F400.000000
G01 X200.728516 Y76.090820 Z24.000000 F400.000000
G01 X200.604492 Y75.842773 Z24.000000 F400.000000
G01 X200.356445 Y75.594727 Z24.000000 F400.000000
G00 Z32.000000
G00 Z32.000000
G00 X199.736328 Y77.827148
G01 Z24.000000 F400.0(Penetrate)
G01 X199.736328 Y79.315430 Z24.000000 F400.000000
G01 X199.488281 Y79.315430 Z24.000000 F400.000000
G01 X199.240234 Y79.191406 Z24.000000 F400.000000
G01 X199.116211 Y79.067383 Z24.000000 F400.000000
G01 X198.992188 Y78.819336 Z24.000000 F400.000000
G01 X198.992188 Y78.447266 Z24.000000 F400.000000
G01 X199.116211 Y78.199219 Z24.000000 F400.000000
G01 X199.364258 Y77.951172 Z24.000000 F400.000000
G01 X199.736328 Y77.827148 Z24.000000 F400.000000
G01 X199.984375 Y77.827148 Z24.000000 F400.000000
G01 X200.356445 Y77.951172 Z24.000000 F400.000000
G01 X200.604492 Y78.199219 Z24.000000 F400.000000
G01 X200.728516 Y78.447266 Z24.000000 F400.000000
G01 X200.728516 Y78.819336 Z24.000000 F400.000000
G01 X200.604492 Y79.067383 Z24.000000 F400.000000
G01 X200.356445 Y79.315430 Z24.000000 F400.000000
G00 Z32.000000
G00 Z32.000000
G00 X198.124023 Y82.043945
G01 Z24.000000 F400.0(Penetrate)
G01 X198.248047 Y82.167969 Z24.000000 F400.000000
G01 X198.124023 Y82.291992 Z24.000000 F400.000000
G01 X198.000000 Y82.167969 Z24.000000 F400.000000
G01 X198.124023 Y82.043945 Z24.000000 F400.000000
G00 Z32.000000
G00 Z32.000000
G00 X198.992188 Y82.167969
G01 Z24.000000 F400.0(Penetrate)
G01 X200.728516 Y82.167969 Z24.000000 F400.000000
G00 Z32.000000
G00 Z32.000000
G00 X198.992188 Y83.160156
G01 Z24.000000 F400.0(Penetrate)
G01 X200.728516 Y83.160156 Z24.000000 F400.000000
G00 Z32.000000
G00 Z32.000000
G00 X199.488281 Y83.160156
G01 Z24.000000 F400.0(Penetrate)
G01 X199.116211 Y83.532227 Z24.000000 F400.000000
G01 X198.992188 Y83.780273 Z24.000000 F400.000000
G01 X198.992188 Y84.152344 Z24.000000 F400.000000
G01 X199.116211 Y84.400391 Z24.000000 F400.000000
G01 X199.488281 Y84.524414 Z24.000000 F400.000000
G01 X200.728516 Y84.524414 Z24.000000 F400.000000
G00 Z32.000000
G00 Z32.000000
G00 X198.992188 Y87.500977
G01 Z24.000000 F400.0(Penetrate)
G01 X200.728516 Y87.500977 Z24.000000 F400.000000
G00 Z32.000000
G00 Z32.000000
G00 X199.488281 Y87.500977
G01 Z24.000000 F400.0(Penetrate)
G01 X199.116211 Y87.873047 Z24.000000 F400.000000
G01 X198.992188 Y88.121094 Z24.000000 F400.000000
G01 X198.992188 Y88.493164 Z24.000000 F400.000000
G01 X199.116211 Y88.741211 Z24.000000 F400.000000
G01 X199.488281 Y88.865234 Z24.000000 F400.000000
G01 X200.728516 Y88.865234 Z24.000000 F400.000000
G00 Z32.000000
G00 Z32.000000
G00 X199.488281 Y88.865234
G01 Z24.000000 F400.0(Penetrate)
G01 X199.116211 Y89.237305 Z24.000000 F400.000000
G01 X198.992188 Y89.485352 Z24.000000 F400.000000
G01 X198.992188 Y89.857422 Z24.000000 F400.000000
G01 X199.116211 Y90.105469 Z24.000000 F400.000000
G01 X199.488281 Y90.229492 Z24.000000 F400.000000
G01 X200.728516 Y90.229492 Z24.000000 F400.000000
G00 Z32.000000
G00 Z32.000000
G00 X198.992188 Y91.221680
G01 Z24.000000 F400.0(Penetrate)
G01 X200.232422 Y91.221680 Z24.000000 F400.000000
G01 X200.604492 Y91.345703 Z24.000000 F400.000000
G01 X200.728516 Y91.593750 Z24.000000 F400.000000
G01 X200.728516 Y91.965820 Z24.000000 F400.000000
G01 X200.604492 Y92.213867 Z24.000000 F400.000000
G01 X200.232422 Y92.585938 Z24.000000 F400.000000
G00 Z32.000000
G00 Z32.000000
G00 X198.992188 Y92.585938
G01 Z24.000000 F400.0(Penetrate)
G01 X200.728516 Y92.585938 Z24.000000 F400.000000
G00 Z32.000000
G00 Z32.000000
G00 X198.124023 Y93.578125
G01 Z24.000000 F400.0(Penetrate)
G01 X200.728516 Y93.578125 Z24.000000 F400.000000
G00 Z32.000000
G00 Z32.000000
G00 X198.124023 Y94.694336
G01 Z24.000000 F400.0(Penetrate)
G01 X200.232422 Y94.694336 Z24.000000 F400.000000
G01 X200.604492 Y94.818359 Z24.000000 F400.000000
G01 X200.728516 Y95.066406 Z24.000000 F400.000000
G01 X200.728516 Y95.314453 Z24.000000 F400.000000
G00 Z32.000000
G00 Z32.000000
G00 X198.992188 Y94.322266
G01 Z24.000000 F400.0(Penetrate)
G01 X198.992188 Y95.190430 Z24.000000 F400.000000
G00 Z32.000000
G00 Z32.000000
G00 X198.124023 Y95.934570
G01 Z24.000000 F400.0(Penetrate)
G01 X198.248047 Y96.058594 Z24.000000 F400.000000
G01 X198.124023 Y96.182617 Z24.000000 F400.000000
G01 X198.000000 Y96.058594 Z24.000000 F400.000000
G01 X198.124023 Y95.934570 Z24.000000 F400.000000
G00 Z32.000000
G00 Z32.000000
G00 X198.992188 Y96.058594
G01 Z24.000000 F400.0(Penetrate)
G01 X200.728516 Y96.058594 Z24.000000 F400.000000
G00 Z32.000000
G00 Z32.000000
G00 X198.992188 Y97.050781
G01 Z24.000000 F400.0(Penetrate)
G01 X201.596680 Y97.050781 Z24.000000 F400.000000
G00 Z32.000000
G00 Z32.000000
G00 X199.364258 Y97.050781
G01 Z24.000000 F400.0(Penetrate)
G01 X199.116211 Y97.298828 Z24.000000 F400.000000
G01 X198.992188 Y97.546875 Z24.000000 F400.000000
G01 X198.992188 Y97.918945 Z24.000000 F400.000000
G01 X199.116211 Y98.166992 Z24.000000 F400.000000
G01 X199.364258 Y98.415039 Z24.000000 F400.000000
G01 X199.736328 Y98.539063 Z24.000000 F400.000000
G01 X199.984375 Y98.539063 Z24.000000 F400.000000
G01 X200.356445 Y98.415039 Z24.000000 F400.000000
G01 X200.604492 Y98.166992 Z24.000000 F400.000000
G01 X200.728516 Y97.918945 Z24.000000 F400.000000
G01 X200.728516 Y97.546875 Z24.000000 F400.000000
G01 X200.604492 Y97.298828 Z24.000000 F400.000000
G01 X200.356445 Y97.050781 Z24.000000 F400.000000
G00 Z32.000000
G00 Z32.000000
G00 X198.124023 Y99.407227
G01 Z24.000000 F400.0(Penetrate)
G01 X200.728516 Y99.407227 Z24.000000 F400.000000
G00 Z32.000000
G00 Z32.000000
G00 X199.736328 Y100.275391
G01 Z24.000000 F400.0(Penetrate)
G01 X199.736328 Y101.763672 Z24.000000 F400.000000
G01 X199.488281 Y101.763672 Z24.000000 F400.000000
G01 X199.240234 Y101.639648 Z24.000000 F400.000000
G01 X199.116211 Y101.515625 Z24.000000 F400.000000
G01 X198.992188 Y101.267578 Z24.000000 F400.000000
G01 X198.992188 Y100.895508 Z24.000000 F400.000000
G01 X199.116211 Y100.647461 Z24.000000 F400.000000
G01 X199.364258 Y100.399414 Z24.000000 F400.000000
G01 X199.736328 Y100.275391 Z24.000000 F400.000000
G01 X199.984375 Y100.275391 Z24.000000 F400.000000
G01 X200.356445 Y100.399414 Z24.000000 F400.000000
G01 X200.604492 Y100.647461 Z24.000000 F400.000000
G01 X200.728516 Y100.895508 Z24.000000 F400.000000
G01 X200.728516 Y101.267578 Z24.000000 F400.000000
G01 X200.604492 Y101.515625 Z24.000000 F400.000000
G01 X200.356445 Y101.763672 Z24.000000 F400.000000
G00 Z32.000000
G00 Z32.000000
G00 X198.124023 Y104.616211
G01 Z24.000000 F400.0(Penetrate)
G01 X200.728516 Y104.616211 Z24.000000 F400.000000
G00 Z32.000000
G00 Z32.000000
G00 X198.124023 Y105.484375
G01 Z24.000000 F400.0(Penetrate)
G01 X198.248047 Y105.608398 Z24.000000 F400.000000
G01 X198.124023 Y105.732422 Z24.000000 F400.000000
G01 X198.000000 Y105.608398 Z24.000000 F400.000000
G01 X198.124023 Y105.484375 Z24.000000 F400.000000
G00 Z32.000000
G00 Z32.000000
G00 X198.992188 Y105.608398
G01 Z24.000000 F400.0(Penetrate)
G01 X200.728516 Y105.608398 Z24.000000 F400.000000
G00 Z32.000000
G00 Z32.000000
G00 X198.992188 Y106.600586
G01 Z24.000000 F400.0(Penetrate)
G01 X200.728516 Y106.600586 Z24.000000 F400.000000
G00 Z32.000000
G00 Z32.000000
G00 X199.488281 Y106.600586
G01 Z24.000000 F400.0(Penetrate)
G01 X199.116211 Y106.972656 Z24.000000 F400.000000
G01 X198.992188 Y107.220703 Z24.000000 F400.000000
G01 X198.992188 Y107.592773 Z24.000000 F400.000000
G01 X199.116211 Y107.840820 Z24.000000 F400.000000
G01 X199.488281 Y107.964844 Z24.000000 F400.000000
G01 X200.728516 Y107.964844 Z24.000000 F400.000000
G00 Z32.000000
G00 Z32.000000
G00 X199.736328 Y108.833008
G01 Z24.000000 F400.0(Penetrate)
G01 X199.736328 Y110.321289 Z24.000000 F400.000000
G01 X199.488281 Y110.321289 Z24.000000 F400.000000
G01 X199.240234 Y110.197266 Z24.000000 F400.000000
G01 X199.116211 Y110.073242 Z24.000000 F400.000000
G01 X198.992188 Y109.825195 Z24.000000 F400.000000
G01 X198.992188 Y109.453125 Z24.000000 F400.000000
G01 X199.116211 Y109.205078 Z24.000000 F400.000000
G01 X199.364258 Y108.957031 Z24.000000 F400.000000
G01 X199.736328 Y108.833008 Z24.000000 F400.000000
G01 X199.984375 Y108.833008 Z24.000000 F400.000000
G01 X200.356445 Y108.957031 Z24.000000 F400.000000
G01 X200.604492 Y109.205078 Z24.000000 F400.000000
G01 X200.728516 Y109.453125 Z24.000000 F400.000000
G01 X200.728516 Y109.825195 Z24.000000 F400.000000
G01 X200.604492 Y110.073242 Z24.000000 F400.000000
G01 X200.356445 Y110.321289 Z24.000000 F400.000000
G00 Z32.000000
G00 Z32.000000
G00 X199.364258 Y112.429688
G01 Z24.000000 F400.0(Penetrate)
G01 X199.116211 Y112.305664 Z24.000000 F400.000000
G01 X198.992188 Y111.933594 Z24.000000 F400.000000
G01 X198.992188 Y111.561523 Z24.000000 F400.000000
G01 X199.116211 Y111.189453 Z24.000000 F400.000000
G01 X199.364258 Y111.065430 Z24.000000 F400.000000
G01 X199.612305 Y111.189453 Z24.000000 F400.000000
G01 X199.736328 Y111.437500 Z24.000000 F400.000000
G01 X199.860352 Y112.057617 Z24.000000 F400.000000
G01 X199.984375 Y112.305664 Z24.000000 F400.000000
G01 X200.232422 Y112.429688 Z24.000000 F400.000000
G01 X200.356445 Y112.429688 Z24.000000 F400.000000
G01 X200.604492 Y112.305664 Z24.000000 F400.000000
G01 X200.728516 Y111.933594 Z24.000000 F400.000000
G01 X200.728516 Y111.561523 Z24.000000 F400.000000
G01 X200.604492 Y111.189453 Z24.000000 F400.000000
G01 X200.356445 Y111.065430 Z24.000000 F400.000000
G00 Z32.000000
G00 Z32.000000
G00 X200.108398 Y113.297852
G01 Z24.000000 F400.0(Penetrate)
G01 X200.232422 Y113.173828 Z24.000000 F400.000000
G01 X200.356445 Y113.297852 Z24.000000 F400.000000
G01 X200.232422 Y113.421875 Z24.000000 F400.000000
G01 X200.108398 Y113.297852 Z24.000000 F400.000000
G00 Z32.000000
G00 Z32.000000
G00 X198.124023 Y114.290039
G01 Z24.000000 F400.0(Penetrate)
G01 X200.728516 Y114.290039 Z24.000000 F400.000000
G00 Z32.000000
G00 Z32.000000
G00 X198.124023 Y116.026367
G01 Z24.000000 F400.0(Penetrate)
G01 X200.728516 Y116.026367 Z24.000000 F400.000000
G00 Z32.000000
G00 Z32.000000
G00 X199.364258 Y114.290039
G01 Z24.000000 F400.0(Penetrate)
G01 X199.364258 Y116.026367 Z24.000000 F400.000000
G00 Z32.000000
G00 Z32.000000
G00 X199.736328 Y116.894531
G01 Z24.000000 F400.0(Penetrate)
G01 X199.736328 Y118.382812 Z24.000000 F400.000000
G01 X199.488281 Y118.382812 Z24.000000 F400.000000
G01 X199.240234 Y118.258789 Z24.000000 F400.000000
G01 X199.116211 Y118.134766 Z24.000000 F400.000000
G01 X198.992188 Y117.886719 Z24.000000 F400.000000
G01 X198.992188 Y117.514648 Z24.000000 F400.000000
G01 X199.116211 Y117.266602 Z24.000000 F400.000000
G01 X199.364258 Y117.018555 Z24.000000 F400.000000
G01 X199.736328 Y116.894531 Z24.000000 F400.000000
G01 X199.984375 Y116.894531 Z24.000000 F400.000000
G01 X200.356445 Y117.018555 Z24.000000 F400.000000
G01 X200.604492 Y117.266602 Z24.000000 F400.000000
G01 X200.728516 Y117.514648 Z24.000000 F400.000000
G01 X200.728516 Y117.886719 Z24.000000 F400.000000
G01 X200.604492 Y118.134766 Z24.000000 F400.000000
G01 X200.356445 Y118.382812 Z24.000000 F400.000000
G00 Z32.000000
G00 Z32.000000
G00 X198.124023 Y119.250977
G01 Z24.000000 F400.0(Penetrate)
G01 X200.728516 Y119.250977 Z24.000000 F400.000000
G00 Z32.000000
G00 Z32.000000
G00 X198.124023 Y120.243164
G01 Z24.000000 F400.0(Penetrate)
G01 X200.728516 Y120.243164 Z24.000000 F400.000000
G00 Z32.000000
G00 Z32.000000
G00 X198.992188 Y121.731445
G01 Z24.000000 F400.0(Penetrate)
G01 X199.116211 Y121.483398 Z24.000000 F400.000000
G01 X199.364258 Y121.235352 Z24.000000 F400.000000
G01 X199.736328 Y121.111328 Z24.000000 F400.000000
G01 X199.984375 Y121.111328 Z24.000000 F400.000000
G01 X200.356445 Y121.235352 Z24.000000 F400.000000
G01 X200.604492 Y121.483398 Z24.000000 F400.000000
G01 X200.728516 Y121.731445 Z24.000000 F400.000000
G01 X200.728516 Y122.103516 Z24.000000 F400.000000
G01 X200.604492 Y122.351562 Z24.000000 F400.000000
G01 X200.356445 Y122.599609 Z24.000000 F400.000000
G01 X199.984375 Y122.723633 Z24.000000 F400.000000
G01 X199.736328 Y122.723633 Z24.000000 F400.000000
G01 X199.364258 Y122.599609 Z24.000000 F400.000000
G01 X199.116211 Y122.351562 Z24.000000 F400.000000
G01 X198.992188 Y122.103516 Z24.000000 F400.000000
G01 X198.992188 Y121.731445 Z24.000000 F400.000000
G00 Z32.000000
G00 Z32.000000
G00 X200.232422 Y123.715820
G01 Z24.000000 F400.0(Penetrate)
G01 X200.356445 Y123.591797 Z24.000000 F400.000000
G01 X200.232422 Y123.467773 Z24.000000 F400.000000
G01 X200.108398 Y123.591797 Z24.000000 F400.000000
G01 X200.232422 Y123.715820 Z24.000000 F400.000000
G01 X200.480469 Y123.715820 Z24.000000 F400.000000
G01 X200.728516 Y123.467773 Z24.000000 F400.000000
G00 Z32.000000
G00 Z32.000000
G00 X192.124023 Y40.000000
G01 Z24.000000 F400.0(Penetrate)
G01 X194.728516 Y40.620117 Z24.000000 F400.000000
G00 Z32.000000
G00 Z32.000000
G00 X192.124023 Y41.240234
G01 Z24.000000 F400.0(Penetrate)
G01 X194.728516 Y40.620117 Z24.000000 F400.000000
G00 Z32.000000
G00 Z32.000000
G00 X192.124023 Y41.240234
G01 Z24.000000 F400.0(Penetrate)
G01 X194.728516 Y41.860352 Z24.000000 F400.000000
G00 Z32.000000
G00 Z32.000000
G00 X192.124023 Y42.480469
G01 Z24.000000 F400.0(Penetrate)
G01 X194.728516 Y41.860352 Z24.000000 F400.000000
G00 Z32.000000
G00 Z32.000000
G00 X192.992188 Y43.720703
G01 Z24.000000 F400.0(Penetrate)
G01 X193.116211 Y43.472656 Z24.000000 F400.000000
G01 X193.364258 Y43.224609 Z24.000000 F400.000000
G01 X193.736328 Y43.100586 Z24.000000 F400.000000
G01 X193.984375 Y43.100586 Z24.000000 F400.000000
G01 X194.356445 Y43.224609 Z24.000000 F400.000000
G01 X194.604492 Y43.472656 Z24.000000 F400.000000
G01 X194.728516 Y43.720703 Z24.000000 F400.000000
G01 X194.728516 Y44.092773 Z24.000000 F400.000000
G01 X194.604492 Y44.340820 Z24.000000 F400.000000
G01 X194.356445 Y44.588867 Z24.000000 F400.000000
G01 X193.984375 Y44.712891 Z24.000000 F400.000000
G01 X193.736328 Y44.712891 Z24.000000 F400.000000
G01 X193.364258 Y44.588867 Z24.000000 F400.000000
G01 X193.116211 Y44.340820 Z24.000000 F400.000000
G01 X192.992188 Y44.092773 Z24.000000 F400.000000
G01 X192.992188 Y43.720703 Z24.000000 F400.000000
G00 Z32.000000
G00 Z32.000000
G00 X192.992188 Y45.581055
G01 Z24.000000 F400.0(Penetrate)
G01 X194.728516 Y45.581055 Z24.000000 F400.000000
G00 Z32.000000
G00 Z32.000000
G00 X193.736328 Y45.581055
G01 Z24.000000 F400.0(Penetrate)
G01 X193.364258 Y45.705078 Z24.000000 F400.000000
G01 X193.116211 Y45.953125 Z24.000000 F400.000000
G01 X192.992188 Y46.201172 Z24.000000 F400.000000
G01 X192.992188 Y46.573242 Z24.000000 F400.000000
G00 Z32.000000
G00 Z32.000000
G00 X192.124023 Y47.193359
G01 Z24.000000 F400.0(Penetrate)
G01 X194.728516 Y47.193359 Z24.000000 F400.000000
G00 Z32.000000
G00 Z32.000000
G00 X192.124023 Y49.549805
G01 Z24.000000 F400.0(Penetrate)
G01 X194.728516 Y49.549805 Z24.000000 F400.000000
G00 Z32.000000
G00 Z32.000000
G00 X193.364258 Y49.549805
G01 Z24.000000 F400.0(Penetrate)
G01 X193.116211 Y49.301758 Z24.000000 F400.000000
G01 X192.992188 Y49.053711 Z24.000000 F400.000000
G01 X192.992188 Y48.681641 Z24.000000 F400.000000
G01 X193.116211 Y48.433594 Z24.000000 F400.000000
G01 X193.364258 Y48.185547 Z24.000000 F400.000000
G01 X193.736328 Y48.061523 Z24.000000 F400.000000
G01 X193.984375 Y48.061523 Z24.000000 F400.000000
G01 X194.356445 Y48.185547 Z24.000000 F400.000000
G01 X194.604492 Y48.433594 Z24.000000 F400.000000
G01 X194.728516 Y48.681641 Z24.000000 F400.000000
G01 X194.728516 Y49.053711 Z24.000000 F400.000000
G01 X194.604492 Y49.301758 Z24.000000 F400.000000
G01 X194.356445 Y49.549805 Z24.000000 F400.000000
G00 Z32.000000
G00 Z32.000000
G00 X192.124023 Y50.666016
G01 Z24.000000 F400.0(Penetrate)
G01 X193.860352 Y50.666016 Z24.000000 F400.000000
G00 Z32.000000
G00 Z32.000000
G00 X194.480469 Y50.666016
G01 Z24.000000 F400.0(Penetrate)
G01 X194.604492 Y50.541992 Z24.000000 F400.000000
G01 X194.728516 Y50.666016 Z24.000000 F400.000000
G01 X194.604492 Y50.790039 Z24.000000 F400.000000
G01 X194.480469 Y50.666016 Z24.000000 F400.000000
G00 Z32.000000
G00 Z32.000000
G00 X192.124023 Y54.262695
G01 Z24.000000 F400.0(Penetrate)
G01 X194.728516 Y54.262695 Z24.000000 F400.000000
G00 Z32.000000
G00 Z32.000000
G00 X192.124023 Y53.394531
G01 Z24.000000 F400.0(Penetrate)
G01 X192.124023 Y55.130859 Z24.000000 F400.000000
G00 Z32.000000
G00 Z32.000000
G00 X192.124023 Y55.750977
G01 Z24.000000 F400.0(Penetrate)
G01 X194.728516 Y55.750977 Z24.000000 F400.000000
G00 Z32.000000
G00 Z32.000000
G00 X193.488281 Y55.750977
G01 Z24.000000 F400.0(Penetrate)
G01 X193.116211 Y56.123047 Z24.000000 F400.000000
G01 X192.992188 Y56.371094 Z24.000000 F400.000000
G01 X192.992188 Y56.743164 Z24.000000 F400.000000
G01 X193.116211 Y56.991211 Z24.000000 F400.000000
G01 X193.488281 Y57.115234 Z24.000000 F400.000000
G01 X194.728516 Y57.115234 Z24.000000 F400.000000
G00 Z32.000000
G00 Z32.000000
G00 X192.124023 Y57.983398
G01 Z24.000000 F400.0(Penetrate)
G01 X192.248047 Y58.107422 Z24.000000 F400.000000
G01 X192.124023 Y58.231445 Z24.000000 F400.000000
G01 X192.000000 Y58.107422 Z24.000000 F400.000000
G01 X192.124023 Y57.983398 Z24.000000 F400.000000
G00 Z32.000000
G00 Z32.000000
G00 X192.992188 Y58.107422
G01 Z24.000000 F400.0(Penetrate)
G01 X194.728516 Y58.107422 Z24.000000 F400.000000
G00 Z32.000000
G00 Z32.000000
G00 X193.364258 Y60.339844
G01 Z24.000000 F400.0(Penetrate)
G01 X193.116211 Y60.215820 Z24.000000 F400.000000
G01 X192.992188 Y59.843750 Z24.000000 F400.000000
G01 X192.992188 Y59.471680 Z24.000000 F400.000000
G01 X193.116211 Y59.099609 Z24.000000 F400.000000
G01 X193.364258 Y58.975586 Z24.000000 F400.000000
G01 X193.612305 Y59.099609 Z24.000000 F400.000000
G01 X193.736328 Y59.347656 Z24.000000 F400.000000
G01 X193.860352 Y59.967773 Z24.000000 F400.000000
G01 X193.984375 Y60.215820 Z24.000000 F400.000000
G01 X194.232422 Y60.339844 Z24.000000 F400.000000
G01 X194.356445 Y60.339844 Z24.000000 F400.000000
G01 X194.604492 Y60.215820 Z24.000000 F400.000000
G01 X194.728516 Y59.843750 Z24.000000 F400.000000
G01 X194.728516 Y59.471680 Z24.000000 F400.000000
G01 X194.604492 Y59.099609 Z24.000000 F400.000000
G01 X194.356445 Y58.975586 Z24.000000 F400.000000
G00 Z32.000000
G00 Z32.000000
G00 X192.124023 Y63.068359
G01 Z24.000000 F400.0(Penetrate)
G01 X192.248047 Y63.192383 Z24.000000 F400.000000
G01 X192.124023 Y63.316406 Z24.000000 F400.000000
G01 X192.000000 Y63.192383 Z24.000000 F400.000000
G01 X192.124023 Y63.068359 Z24.000000 F400.000000
G00 Z32.000000
G00 Z32.000000
G00 X192.992188 Y63.192383
G01 Z24.000000 F400.0(Penetrate)
G01 X194.728516 Y63.192383 Z24.000000 F400.000000
G00 Z32.000000
G00 Z32.000000
G00 X193.364258 Y65.424805
G01 Z24.000000 F400.0(Penetrate)
G01 X193.116211 Y65.300781 Z24.000000 F400.000000
G01 X192.992188 Y64.928711 Z24.000000 F400.000000
G01 X192.992188 Y64.556641 Z24.000000 F400.000000
G01 X193.116211 Y64.184570 Z24.000000 F400.000000
G01 X193.364258 Y64.060547 Z24.000000 F400.000000
G01 X193.612305 Y64.184570 Z24.000000 F400.000000
G01 X193.736328 Y64.432617 Z24.000000 F400.000000
G01 X193.860352 Y65.052734 Z24.000000 F400.000000
G01 X193.984375 Y65.300781 Z24.000000 F400.000000
G01 X194.232422 Y65.424805 Z24.000000 F400.000000
G01 X194.356445 Y65.424805 Z24.000000 F400.000000
G01 X194.604492 Y65.300781 Z24.000000 F400.000000
G01 X194.728516 Y64.928711 Z24.000000 F400.000000
G01 X194.728516 Y64.556641 Z24.000000 F400.000000
G01 X194.604492 Y64.184570 Z24.000000 F400.000000
G01 X194.356445 Y64.060547 Z24.000000 F400.000000
G00 Z32.000000
G00 Z32.000000
G00 X192.992188 Y69.641602
G01 Z24.000000 F400.0(Penetrate)
G01 X194.728516 Y69.641602 Z24.000000 F400.000000
G00 Z32.000000
G00 Z32.000000
G00 X193.364258 Y69.641602
G01 Z24.000000 F400.0(Penetrate)
G01 X193.116211 Y69.393555 Z24.000000 F400.000000
G01 X192.992188 Y69.145508 Z24.000000 F400.000000
G01 X192.992188 Y68.773438 Z24.000000 F400.000000
G01 X193.116211 Y68.525391 Z24.000000 F400.000000
G01 X193.364258 Y68.277344 Z24.000000 F400.000000
G01 X193.736328 Y68.153320 Z24.000000 F400.000000
G01 X193.984375 Y68.153320 Z24.000000 F400.000000
G01 X194.356445 Y68.277344 Z24.000000 F400.000000
G01 X194.604492 Y68.525391 Z24.000000 F400.000000
G01 X194.728516 Y68.773438 Z24.000000 F400.000000
G01 X194.728516 Y69.145508 Z24.000000 F400.000000
G01 X194.604492 Y69.393555 Z24.000000 F400.000000
G01 X194.356445 Y69.641602 Z24.000000 F400.000000
G00 Z32.000000
G00 Z32.000000
G00 X192.124023 Y72.742188
G01 Z24.000000 F400.0(Penetrate)
G01 X194.232422 Y72.742188 Z24.000000 F400.000000
G01 X194.604492 Y72.866211 Z24.000000 F400.000000
G01 X194.728516 Y73.114258 Z24.000000 F400.000000
G01 X194.728516 Y73.362305 Z24.000000 F400.000000
G00 Z32.000000
G00 Z32.000000
G00 X192.992188 Y72.370117
G01 Z24.000000 F400.0(Penetrate)
G01 X192.992188 Y73.238281 Z24.000000 F400.000000
G00 Z32.000000
G00 Z32.000000
G00 X193.736328 Y73.982422
G01 Z24.000000 F400.0(Penetrate)
G01 X193.736328 Y75.470703 Z24.000000 F400.000000
G01 X193.488281 Y75.470703 Z24.000000 F400.000000
G01 X193.240234 Y75.346680 Z24.000000 F400.000000
G01 X193.116211 Y75.222656 Z24.000000 F400.000000
G01 X192.992188 Y74.974609 Z24.000000 F400.000000
G01 X192.992188 Y74.602539 Z24.000000 F400.000000
G01 X193.116211 Y74.354492 Z24.000000 F400.000000
G01 X193.364258 Y74.106445 Z24.000000 F400.000000
G01 X193.736328 Y73.982422 Z24.000000 F400.000000
G01 X193.984375 Y73.982422 Z24.000000 F400.000000
G01 X194.356445 Y74.106445 Z24.000000 F400.000000
G01 X194.604492 Y74.354492 Z24.000000 F400.000000
G01 X194.728516 Y74.602539 Z24.000000 F400.000000
G01 X194.728516 Y74.974609 Z24.000000 F400.000000
G01 X194.604492 Y75.222656 Z24.000000 F400.000000
G01 X194.356445 Y75.470703 Z24.000000 F400.000000
G00 Z32.000000
G00 Z32.000000
G00 X193.364258 Y77.579102
G01 Z24.000000 F400.0(Penetrate)
G01 X193.116211 Y77.455078 Z24.000000 F400.000000
G01 X192.992188 Y77.083008 Z24.000000 F400.000000
G01 X192.992188 Y76.710938 Z24.000000 F400.000000
G01 X193.116211 Y76.338867 Z24.000000 F400.000000
G01 X193.364258 Y76.214844 Z24.000000 F400.000000
G01 X193.612305 Y76.338867 Z24.000000 F400.000000
G01 X193.736328 Y76.586914 Z24.000000 F400.000000
G01 X193.860352 Y77.207031 Z24.000000 F400.000000
G01 X193.984375 Y77.455078 Z24.000000 F400.000000
G01 X194.232422 Y77.579102 Z24.000000 F400.000000
G01 X194.356445 Y77.579102 Z24.000000 F400.000000
G01 X194.604492 Y77.455078 Z24.000000 F400.000000
G01 X194.728516 Y77.083008 Z24.000000 F400.000000
G01 X194.728516 Y76.710938 Z24.000000 F400.000000
G01 X194.604492 Y76.338867 Z24.000000 F400.000000
G01 X194.356445 Y76.214844 Z24.000000 F400.000000
G00 Z32.000000
G00 Z32.000000
G00 X192.124023 Y78.571289
G01 Z24.000000 F400.0(Penetrate)
G01 X194.232422 Y78.571289 Z24.000000 F400.000000
G01 X194.604492 Y78.695313 Z24.000000 F400.000000
G01 X194.728516 Y78.943359 Z24.000000 F400.000000
G01 X194.728516 Y79.191406 Z24.000000 F400.000000
G00 Z32.000000
G00 Z32.000000
G00 X192.992188 Y78.199219
G01 Z24.000000 F400.0(Penetrate)
G01 X192.992188 Y79.067383 Z24.000000 F400.000000
G00 Z32.000000
G00 Z32.000000
G00 X192.992188 Y81.919922
G01 Z24.000000 F400.0(Penetrate)
G01 X195.596680 Y81.919922 Z24.000000 F400.000000
G00 Z32.000000
G00 Z32.000000
G00 X193.364258 Y81.919922
G01 Z24.000000 F400.0(Penetrate)
G01 X193.116211 Y82.167969 Z24.000000 F400.000000
G01 X192.992188 Y82.416016 Z24.000000 F400.000000
G01 X192.992188 Y82.788086 Z24.000000 F400.000000
G01 X193.116211 Y83.036133 Z24.000000 F400.000000
G01 X193.364258 Y83.284180 Z24.000000 F400.000000
G01 X193.736328 Y83.408203 Z24.000000 F400.000000
G01 X193.984375 Y83.408203 Z24.000000 F400.000000
G01 X194.356445 Y83.284180 Z24.000000 F400.000000
G01 X194.604492 Y83.036133 Z24.000000 F400.000000
G01 X194.728516 Y82.788086 Z24.000000 F400.000000
G01 X194.728516 Y82.416016 Z24.000000 F400.000000
G01 X194.604492 Y82.167969 Z24.000000 F400.000000
G01 X194.356445 Y81.919922 Z24.000000 F400.000000
G00 Z32.000000
G00 Z32.000000
G00 X192.992188 Y85.640625
G01 Z24.000000 F400.0(Penetrate)
G01 X194.728516 Y85.640625 Z24.000000 F400.000000
G00 Z32.000000
G00 Z32.000000
G00 X193.364258 Y85.640625
G01 Z24.000000 F400.0(Penetrate)
G01 X193.116211 Y85.392578 Z24.000000 F400.000000
G01 X192.992188 Y85.144531 Z24.000000 F400.000000
G01 X192.992188 Y84.772461 Z24.000000 F400.000000
G01 X193.116211 Y84.524414 Z24.000000 F400.000000
G01 X193.364258 Y84.276367 Z24.000000 F400.000000
G01 X193.736328 Y84.152344 Z24.000000 F400.000000
G01 X193.984375 Y84.152344 Z24.000000 F400.000000
G01 X194.356445 Y84.276367 Z24.000000 F400.000000
G01 X194.604492 Y84.524414 Z24.000000 F400.000000
G01 X194.728516 Y84.772461 Z24.000000 F400.000000
G01 X194.728516 Y85.144531 Z24.000000 F400.000000
G01 X194.604492 Y85.392578 Z24.000000 F400.000000
G01 X194.356445 Y85.640625 Z24.000000 F400.000000
G00 Z32.000000
G00 Z32.000000
G00 X192.992188 Y86.632813
G01 Z24.000000 F400.0(Penetrate)
G01 X194.728516 Y86.632813 Z24.000000 F400.000000
G00 Z32.000000
G00 Z32.000000
G00 X193.736328 Y86.632813
G01 Z24.000000 F400.0(Penetrate)
G01 X193.364258 Y86.756836 Z24.000000 F400.000000
G01 X193.116211 Y87.004883 Z24.000000 F400.000000
G01 X192.992188 Y87.252930 Z24.000000 F400.000000
G01 X192.992188 Y87.625000 Z24.000000 F400.000000
G00 Z32.000000
G00 Z32.000000
G00 X192.992188 Y89.609375
G01 Z24.000000 F400.0(Penetrate)
G01 X194.728516 Y89.609375 Z24.000000 F400.000000
G00 Z32.000000
G00 Z32.000000
G00 X193.364258 Y89.609375
G01 Z24.000000 F400.0(Penetrate)
G01 X193.116211 Y89.361328 Z24.000000 F400.000000
G01 X192.992188 Y89.113281 Z24.000000 F400.000000
G01 X192.992188 Y88.741211 Z24.000000 F400.000000
G01 X193.116211 Y88.493164 Z24.000000 F400.000000
G01 X193.364258 Y88.245117 Z24.000000 F400.000000
G01 X193.736328 Y88.121094 Z24.000000 F400.000000
G01 X193.984375 Y88.121094 Z24.000000 F400.000000
G01 X194.356445 Y88.245117 Z24.000000 F400.000000
G01 X194.604492 Y88.493164 Z24.000000 F400.000000
G01 X194.728516 Y88.741211 Z24.000000 F400.000000
G01 X194.728516 Y89.113281 Z24.000000 F400.000000
G01 X194.604492 Y89.361328 Z24.000000 F400.000000
G01 X194.356445 Y89.609375 Z24.000000 F400.000000
G00 Z32.000000
G00 Z32.000000
G00 X192.992188 Y91.965820
G01 Z24.000000 F400.0(Penetrate)
G01 X194.976563 Y91.965820 Z24.000000 F400.000000
G01 X195.348633 Y91.841797 Z24.000000 F400.000000
G01 X195.472656 Y91.717773 Z24.000000 F400.000000
G01 X195.596680 Y91.469727 Z24.000000 F400.000000
G01 X195.596680 Y91.097656 Z24.000000 F400.000000
G01 X195.472656 Y90.849609 Z24.000000 F400.000000
G00 Z32.000000
G00 Z32.000000
G00 X193.364258 Y91.965820
G01 Z24.000000 F400.0(Penetrate)
G01 X193.116211 Y91.717773 Z24.000000 F400.000000
G01 X192.992188 Y91.469727 Z24.000000 F400.000000
G01 X192.992188 Y91.097656 Z24.000000 F400.000000
G01 X193.116211 Y90.849609 Z24.000000 F400.000000
G01 X193.364258 Y90.601563 Z24.000000 F400.000000
G01 X193.736328 Y90.477539 Z24.000000 F400.000000
G01 X193.984375 Y90.477539 Z24.000000 F400.000000
G01 X194.356445 Y90.601563 Z24.000000 F400.000000
G01 X194.604492 Y90.849609 Z24.000000 F400.000000
G01 X194.728516 Y91.097656 Z24.000000 F400.000000
G01 X194.728516 Y91.469727 Z24.000000 F400.000000
G01 X194.604492 Y91.717773 Z24.000000 F400.000000
G01 X194.356445 Y91.965820 Z24.000000 F400.000000
G00 Z32.000000
G00 Z32.000000
G00 X192.992188 Y92.958008
G01 Z24.000000 F400.0(Penetrate)
G01 X194.728516 Y92.958008 Z24.000000 F400.000000
G00 Z32.000000
G00 Z32.000000
G00 X193.736328 Y92.958008
G01 Z24.000000 F400.0(Penetrate)
G01 X193.364258 Y93.082031 Z24.000000 F400.000000
G01 X193.116211 Y93.330078 Z24.000000 F400.000000
G01 X192.992188 Y93.578125 Z24.000000 F400.000000
G01 X192.992188 Y93.950195 Z24.000000 F400.000000
G00 Z32.000000
G00 Z32.000000
G00 X192.992188 Y95.934570
G01 Z24.000000 F400.0(Penetrate)
G01 X194.728516 Y95.934570 Z24.000000 F400.000000
G00 Z32.000000
G00 Z32.000000
G00 X193.364258 Y95.934570
G01 Z24.000000 F400.0(Penetrate)
G01 X193.116211 Y95.686523 Z24.000000 F400.000000
G01 X192.992188 Y95.438477 Z24.000000 F400.000000
G01 X192.992188 Y95.066406 Z24.000000 F400.000000
G01 X193.116211 Y94.818359 Z24.000000 F400.000000
G01 X193.364258 Y94.570313 Z24.000000 F400.000000
G01 X193.736328 Y94.446289 Z24.000000 F400.000000
G01 X193.984375 Y94.446289 Z24.000000 F400.000000
G01 X194.356445 Y94.570313 Z24.000000 F400.000000
G01 X194.604492 Y94.818359 Z24.000000 F400.000000
G01 X194.728516 Y95.066406 Z24.000000 F400.000000
G01 X194.728516 Y95.438477 Z24.000000 F400.000000
G01 X194.604492 Y95.686523 Z24.000000 F400.000000
G01 X194.356445 Y95.934570 Z24.000000 F400.000000
G00 Z32.000000
G00 Z32.000000
G00 X192.992188 Y96.926758
G01 Z24.000000 F400.0(Penetrate)
G01 X195.596680 Y96.926758 Z24.000000 F400.000000
G00 Z32.000000
G00 Z32.000000
G00 X193.364258 Y96.926758
G01 Z24.000000 F400.0(Penetrate)
G01 X193.116211 Y97.174805 Z24.000000 F400.000000
G01 X192.992188 Y97.422852 Z24.000000 F400.000000
G01 X192.992188 Y97.794922 Z24.000000 F400.000000
G01 X193.116211 Y98.042969 Z24.000000 F400.000000
G01 X193.364258 Y98.291016 Z24.000000 F400.000000
G01 X193.736328 Y98.415039 Z24.000000 F400.000000
G01 X193.984375 Y98.415039 Z24.000000 F400.000000
G01 X194.356445 Y98.291016 Z24.000000 F400.000000
G01 X194.604492 Y98.042969 Z24.000000 F400.000000
G01 X194.728516 Y97.794922 Z24.000000 F400.000000
G01 X194.728516 Y97.422852 Z24.000000 F400.000000
G01 X194.604492 Y97.174805 Z24.000000 F400.000000
G01 X194.356445 Y96.926758 Z24.000000 F400.000000
G00 Z32.000000
G00 Z32.000000
G00 X192.124023 Y99.283203
G01 Z24.000000 F400.0(Penetrate)
G01 X194.728516 Y99.283203 Z24.000000 F400.000000
G00 Z32.000000
G00 Z32.000000
G00 X193.488281 Y99.283203
G01 Z24.000000 F400.0(Penetrate)
G01 X193.116211 Y99.655273 Z24.000000 F400.000000
G01 X192.992188 Y99.903320 Z24.000000 F400.000000
G01 X192.992188 Y100.275391 Z24.000000 F400.000000
G01 X193.116211 Y100.523438 Z24.000000 F400.000000
G01 X193.488281 Y100.647461 Z24.000000 F400.000000
G01 X194.728516 Y100.647461 Z24.000000 F400.000000
G00 Z32.000000
G00 Z32.000000
G00 X192.124023 Y103.748047
G01 Z24.000000 F400.0(Penetrate)
G01 X194.232422 Y103.748047 Z24.000000 F400.000000
G01 X194.604492 Y103.872070 Z24.000000 F400.000000
G01 X194.728516 Y104.120117 Z24.000000 F400.000000
G01 X194.728516 Y104.368164 Z24.000000 F400.000000
G00 Z32.000000
G00 Z32.000000
G00 X192.992188 Y103.375977
G01 Z24.000000 F400.0(Penetrate)
G01 X192.992188 Y104.244141 Z24.000000 F400.000000
G00 Z32.000000
G00 Z32.000000
G00 X192.124023 Y105.112305
G01 Z24.000000 F400.0(Penetrate)
G01 X194.728516 Y105.112305 Z24.000000 F400.000000
G00 Z32.000000
G00 Z32.000000
G00 X193.488281 Y105.112305
G01 Z24.000000 F400.0(Penetrate)
G01 X193.116211 Y105.484375 Z24.000000 F400.000000
G01 X192.992188 Y105.732422 Z24.000000 F400.000000
G01 X192.992188 Y106.104492 Z24.000000 F400.000000
G01 X193.116211 Y106.352539 Z24.000000 F400.000000
G01 X193.488281 Y106.476563 Z24.000000 F400.000000
G01 X194.728516 Y106.476563 Z24.000000 F400.000000
G00 Z32.000000
G00 Z32.000000
G00 X192.992188 Y108.833008
G01 Z24.000000 F400.0(Penetrate)
G01 X194.728516 Y108.833008 Z24.000000 F400.000000
G00 Z32.000000
G00 Z32.000000
G00 X193.364258 Y108.833008
G01 Z24.000000 F400.0(Penetrate)
G01 X193.116211 Y108.584961 Z24.000000 F400.000000
G01 X192.992188 Y108.336914 Z24.000000 F400.000000
G01 X192.992188 Y107.964844 Z24.000000 F400.000000
G01 X193.116211 Y107.716797 Z24.000000 F400.000000
G01 X193.364258 Y107.468750 Z24.000000 F400.000000
G01 X193.736328 Y107.344727 Z24.000000 F400.000000
G01 X193.984375 Y107.344727 Z24.000000 F400.000000
G01 X194.356445 Y107.468750 Z24.000000 F400.000000
G01 X194.604492 Y107.716797 Z24.000000 F400.000000
G01 X194.728516 Y107.964844 Z24.000000 F400.000000
G01 X194.728516 Y108.336914 Z24.000000 F400.000000
G01 X194.604492 Y108.584961 Z24.000000 F400.000000
G01 X194.356445 Y108.833008 Z24.000000 F400.000000
G00 Z32.000000
G00 Z32.000000
G00 X192.124023 Y109.949219
G01 Z24.000000 F400.0(Penetrate)
G01 X194.232422 Y109.949219 Z24.000000 F400.000000
G01 X194.604492 Y110.073242 Z24.000000 F400.000000
G01 X194.728516 Y110.321289 Z24.000000 F400.000000
G01 X194.728516 Y110.569336 Z24.000000 F400.000000
G00 Z32.000000
G00 Z32.000000
G00 X192.992188 Y109.577148
G01 Z24.000000 F400.0(Penetrate)
G01 X192.992188 Y110.445312 Z24.000000 F400.000000
G00 Z32.000000
G00 Z32.000000
G00 X192.992188 Y113.173828
G01 Z24.000000 F400.0(Penetrate)
G01 X194.728516 Y113.669922 Z24.000000 F400.000000
G00 Z32.000000
G00 Z32.000000
G00 X192.992188 Y114.166016
G01 Z24.000000 F400.0(Penetrate)
G01 X194.728516 Y113.669922 Z24.000000 F400.000000
G00 Z32.000000
G00 Z32.000000
G00 X192.992188 Y114.166016
G01 Z24.000000 F400.0(Penetrate)
G01 X194.728516 Y114.662109 Z24.000000 F400.000000
G00 Z32.000000
G00 Z32.000000
G00 X192.992188 Y115.158203
G01 Z24.000000 F400.0(Penetrate)
G01 X194.728516 Y114.662109 Z24.000000 F400.000000
G00 Z32.000000
G00 Z32.000000
G00 X192.124023 Y115.902344
G01 Z24.000000 F400.0(Penetrate)
G01 X192.248047 Y116.026367 Z24.000000 F400.000000
G01 X192.124023 Y116.150391 Z24.000000 F400.000000
G01 X192.000000 Y116.026367 Z24.000000 F400.000000
G01 X192.124023 Y115.902344 Z24.000000 F400.000000
G00 Z32.000000
G00 Z32.000000
G00 X192.992188 Y116.026367
G01 Z24.000000 F400.0(Penetrate)
G01 X194.728516 Y116.026367 Z24.000000 F400.000000
G00 Z32.000000
G00 Z32.000000
G00 X192.124023 Y117.018555
G01 Z24.000000 F400.0(Penetrate)
G01 X194.728516 Y117.018555 Z24.000000 F400.000000
G00 Z32.000000
G00 Z32.000000
G00 X192.124023 Y118.010742
G01 Z24.000000 F400.0(Penetrate)
G01 X194.728516 Y118.010742 Z24.000000 F400.000000
G00 Z32.000000
G00 Z32.000000
G00 X192.124023 Y120.987305
G01 Z24.000000 F400.0(Penetrate)
G01 X194.728516 Y120.987305 Z24.000000 F400.000000
G00 Z32.000000
G00 Z32.000000
G00 X193.364258 Y120.987305
G01 Z24.000000 F400.0(Penetrate)
G01 X193.116211 Y121.235352 Z24.000000 F400.000000
G01 X192.992188 Y121.483398 Z24.000000 F400.000000
G01 X192.992188 Y121.855469 Z24.000000 F400.000000
G01 X193.116211 Y122.103516 Z24.000000 F400.000000
G01 X193.364258 Y122.351562 Z24.000000 F400.000000
G01 X193.736328 Y122.475586 Z24.000000 F400.000000
G01 X193.984375 Y122.475586 Z24.000000 F400.000000
G01 X194.356445 Y122.351562 Z24.000000 F400.000000
G01 X194.604492 Y122.103516 Z24.000000 F400.000000
G01 X194.728516 Y121.855469 Z24.000000 F400.000000
G01 X194.728516 Y121.483398 Z24.000000 F400.000000
G01 X194.604492 Y121.235352 Z24.000000 F400.000000
G01 X194.356445 Y120.987305 Z24.000000 F400.000000
G00 Z32.000000
G00 Z32.000000
G00 X193.736328 Y123.219727
G01 Z24.000000 F400.0(Penetrate)
G01 X193.736328 Y124.708008 Z24.000000 F400.000000
G01 X193.488281 Y124.708008 Z24.000000 F400.000000
G01 X193.240234 Y124.583984 Z24.000000 F400.000000
G01 X193.116211 Y124.459961 Z24.000000 F400.000000
G01 X192.992188 Y124.211914 Z24.000000 F400.000000
G01 X192.992188 Y123.839844 Z24.000000 F400.000000
G01 X193.116211 Y123.591797 Z24.000000 F400.000000
G01 X193.364258 Y123.343750 Z24.000000 F400.000000
G01 X193.736328 Y123.219727 Z24.000000 F400.000000
G01 X193.984375 Y123.219727 Z24.000000 F400.000000
G01 X194.356445 Y123.343750 Z24.000000 F400.000000
G01 X194.604492 Y123.591797 Z24.000000 F400.000000
G01 X194.728516 Y123.839844 Z24.000000 F400.000000
G01 X194.728516 Y124.211914 Z24.000000 F400.000000
G01 X194.604492 Y124.459961 Z24.000000 F400.000000
G01 X194.356445 Y124.708008 Z24.000000 F400.000000
G00 Z32.000000
G00 Z32.000000
G00 X186.124023 Y40.248047
G01 Z24.000000 F400.0(Penetrate)
G01 X188.728516 Y40.248047 Z24.000000 F400.000000
G00 Z32.000000
G00 Z32.000000
G00 X186.992188 Y42.604492
G01 Z24.000000 F400.0(Penetrate)
G01 X188.728516 Y42.604492 Z24.000000 F400.000000
G00 Z32.000000
G00 Z32.000000
G00 X187.364258 Y42.604492
G01 Z24.000000 F400.0(Penetrate)
G01 X187.116211 Y42.356445 Z24.000000 F400.000000
G01 X186.992188 Y42.108398 Z24.000000 F400.000000
G01 X186.992188 Y41.736328 Z24.000000 F400.000000
G01 X187.116211 Y41.488281 Z24.000000 F400.000000
G01 X187.364258 Y41.240234 Z24.000000 F400.000000
G01 X187.736328 Y41.116211 Z24.000000 F400.000000
G01 X187.984375 Y41.116211 Z24.000000 F400.000000
G01 X188.356445 Y41.240234 Z24.000000 F400.000000
G01 X188.604492 Y41.488281 Z24.000000 F400.000000
G01 X188.728516 Y41.736328 Z24.000000 F400.000000
G01 X188.728516 Y42.108398 Z24.000000 F400.000000
G01 X188.604492 Y42.356445 Z24.000000 F400.000000
G01 X188.356445 Y42.604492 Z24.000000 F400.000000
G00 Z32.000000
G00 Z32.000000
G00 X186.124023 Y43.472656
G01 Z24.000000 F400.0(Penetrate)
G01 X186.248047 Y43.596680 Z24.000000 F400.000000
G01 X186.124023 Y43.720703 Z24.000000 F400.000000
G01 X186.000000 Y43.596680 Z24.000000 F400.000000
G01 X186.124023 Y43.472656 Z24.000000 F400.000000
G00 Z32.000000
G00 Z32.000000
G00 X186.992188 Y43.596680
G01 Z24.000000 F400.0(Penetrate)
G01 X188.728516 Y43.596680 Z24.000000 F400.000000
G00 Z32.000000
G00 Z32.000000
G00 X186.124023 Y45.953125
G01 Z24.000000 F400.0(Penetrate)
G01 X188.728516 Y45.953125 Z24.000000 F400.000000
G00 Z32.000000
G00 Z32.000000
G00 X187.364258 Y45.953125
G01 Z24.000000 F400.0(Penetrate)
G01 X187.116211 Y45.705078 Z24.000000 F400.000000
G01 X186.992188 Y45.457031 Z24.000000 F400.000000
G01 X186.992188 Y45.084961 Z24.000000 F400.000000
G01 X187.116211 Y44.836914 Z24.000000 F400.000000
G01 X187.364258 Y44.588867 Z24.000000 F400.000000
G01 X187.736328 Y44.464844 Z24.000000 F400.000000
G01 X187.984375 Y44.464844 Z24.000000 F400.000000
G01 X188.356445 Y44.588867 Z24.000000 F400.000000
G01 X188.604492 Y44.836914 Z24.000000 F400.000000
G01 X188.728516 Y45.084961 Z24.000000 F400.000000
G01 X188.728516 Y45.457031 Z24.000000 F400.000000
G01 X188.604492 Y45.705078 Z24.000000 F400.000000
G01 X188.356445 Y45.953125 Z24.000000 F400.000000
G00 Z32.000000
G00 Z32.000000
G00 X186.992188 Y49.425781
G01 Z24.000000 F400.0(Penetrate)
G01 X187.116211 Y49.177734 Z24.000000 F400.000000
G01 X187.364258 Y48.929688 Z24.000000 F400.000000
G01 X187.736328 Y48.805664 Z24.000000 F400.000000
G01 X187.984375 Y48.805664 Z24.000000 F400.000000
G01 X188.356445 Y48.929688 Z24.000000 F400.000000
G01 X188.604492 Y49.177734 Z24.000000 F400.000000
G01 X188.728516 Y49.425781 Z24.000000 F400.000000
G01 X188.728516 Y49.797852 Z24.000000 F400.000000
G01 X188.604492 Y50.045898 Z24.000000 F400.000000
G01 X188.356445 Y50.293945 Z24.000000 F400.000000
G01 X187.984375 Y50.417969 Z24.000000 F400.000000
G01 X187.736328 Y50.417969 Z24.000000 F400.000000
G01 X187.364258 Y50.293945 Z24.000000 F400.000000
G01 X187.116211 Y50.045898 Z24.000000 F400.000000
G01 X186.992188 Y49.797852 Z24.000000 F400.000000
G01 X186.992188 Y49.425781 Z24.000000 F400.000000
G00 Z32.000000
G00 Z32.000000
G00 X186.992188 Y51.286133
G01 Z24.000000 F400.0(Penetrate)
G01 X188.232422 Y51.286133 Z24.000000 F400.000000
G01 X188.604492 Y51.410156 Z24.000000 F400.000000
G01 X188.728516 Y51.658203 Z24.000000 F400.000000
G01 X188.728516 Y52.030273 Z24.000000 F400.000000
G01 X188.604492 Y52.278320 Z24.000000 F400.000000
G01 X188.232422 Y52.650391 Z24.000000 F400.000000
G00 Z32.000000
G00 Z32.000000
G00 X186.992188 Y52.650391
G01 Z24.000000 F400.0(Penetrate)
G01 X188.728516 Y52.650391 Z24.000000 F400.000000
G00 Z32.000000
G00 Z32.000000
G00 X186.124023 Y53.766602
G01 Z24.000000 F400.0(Penetrate)
G01 X188.232422 Y53.766602 Z24.000000 F400.000000
G01 X188.604492 Y53.890625 Z24.000000 F400.000000
G01 X188.728516 Y54.138672 Z24.000000 F400.000000
G01 X188.728516 Y54.386719 Z24.000000 F400.000000
G00 Z32.000000
G00 Z32.000000
G00 X186.992188 Y53.394531
G01 Z24.000000 F400.0(Penetrate)
G01 X186.992188 Y54.262695 Z24.000000 F400.000000
G00 Z32.000000
G00 Z32.000000
G00 X186.992188 Y57.115234
G01 Z24.000000 F400.0(Penetrate)
G01 X188.232422 Y57.115234 Z24.000000 F400.000000
G01 X188.604492 Y57.239258 Z24.000000 F400.000000
G01 X188.728516 Y57.487305 Z24.000000 F400.000000
G01 X188.728516 Y57.859375 Z24.000000 F400.000000
G01 X188.604492 Y58.107422 Z24.000000 F400.000000
G01 X188.232422 Y58.479492 Z24.000000 F400.000000
G00 Z32.000000
G00 Z32.000000
G00 X186.992188 Y58.479492
G01 Z24.000000 F400.0(Penetrate)
G01 X188.728516 Y58.479492 Z24.000000 F400.000000
G00 Z32.000000
G00 Z32.000000
G00 X187.364258 Y60.711914
G01 Z24.000000 F400.0(Penetrate)
G01 X187.116211 Y60.587891 Z24.000000 F400.000000
G01 X186.992188 Y60.215820 Z24.000000 F400.000000
G01 X186.992188 Y59.843750 Z24.000000 F400.000000
G01 X187.116211 Y59.471680 Z24.000000 F400.000000
G01 X187.364258 Y59.347656 Z24.000000 F400.000000
G01 X187.612305 Y59.471680 Z24.000000 F400.000000
G01 X187.736328 Y59.719727 Z24.000000 F400.000000
G01 X187.860352 Y60.339844 Z24.000000 F400.000000
G01 X187.984375 Y60.587891 Z24.000000 F400.000000
G01 X188.232422 Y60.711914 Z24.000000 F400.000000
G01 X188.356445 Y60.711914 Z24.000000 F400.000000
G01 X188.604492 Y60.587891 Z24.000000 F400.000000
G01 X188.728516 Y60.215820 Z24.000000 F400.000000
G01 X188.728516 Y59.843750 Z24.000000 F400.000000
G01 X188.604492 Y59.471680 Z24.000000 F400.000000
G01 X188.356445 Y59.347656 Z24.000000 F400.000000
G00 Z32.000000
G00 Z32.000000
G00 X186.124023 Y61.456055
G01 Z24.000000 F400.0(Penetrate)
G01 X186.248047 Y61.580078 Z24.000000 F400.000000
G01 X186.124023 Y61.704102 Z24.000000 F400.000000
G01 X186.000000 Y61.580078 Z24.000000 F400.000000
G01 X186.124023 Y61.456055 Z24.000000 F400.000000
G00 Z32.000000
G00 Z32.000000
G00 X186.992188 Y61.580078
G01 Z24.000000 F400.0(Penetrate)
